friji350/itproto/project/res.csv
Joint_1,Joint_2,Joint_3,Joint_4,Joint_5,Joint_6,Torque_1,Torque_2,Torque_3,Torque_4,Torque_5,Torque_6
-30.0,-30.0,-30.0,-30.0,-30.0,-30.0,2109935332939090.2,-0.6694778308420617,-0.060667942454521784,25.17812880827791,0.15326653842272558,-0.04178059719323783
-30.0,-30.0,-30.0,-30.0,-30.0,0.0,2109935332939090.0,-0.6694778308420617,-0.060667942454521756,25.17812880827791,-0.0824853181498979,0.16158296406555908
-30.0,-30.0,-30.0,-30.0,-30.0,30.0,2109935332939090.0,-0.669477830842062,-0.06066794245452174,25.178128808277904,0.0030302322987088622,0.09162941016172964
-30.0,-30.0,-30.0,-30.0,0.0,-30.0,2109935332939090.0,-0.6694778308420617,-0.06066794245452174,25.178128808277926,0.0064592646049371,-0.20344348689485817
-30.0,-30.0,-30.0,-30.0,0.0,0.0,2109935332939090.0,-0.6694778308420617,-0.06066794245452177,25.178128808277926,-0.13122847916738126,-0.05019374657776246
-30.0,-30.0,-30.0,-30.0,0.0,30.0,2109935332939089.8,-0.6694778308420617,-0.06066794245452181,25.178128808277926,-0.3321915798960006,0.18795857052503848
-30.0,-30.0,-30.0,-30.0,30.0,-30.0,2109935332939090.0,-0.6694778308420616,-0.060667942454521714,25.178128808277926,-0.15127383656168733,-0.02098230845419738
-30.0,-30.0,-30.0,-30.0,30.0,0.0,2109935332939090.0,-0.6694778308420615,-0.06066794245452177,25.178128808277926,0.04200095179367552,-0.1770678804353787
-30.0,-30.0,-30.0,-30.0,30.0,30.0,2109935332939090.0,-0.6694778308420616,-0.060667942454521784,25.178128808277904,-0.10551229797751954,-0.03364364611715977
-30.0,-30.0,-30.0,0.0,-30.0,-30.0,2109935332939071.5,-0.14018791370304745,-0.060667942454521756,-0.036382896698817536,0.15326653842272556,-0.04178059719323782
-30.0,-30.0,-30.0,0.0,-30.0,0.0,2109935332939071.2,-0.14018791370304745,-0.06066794245452177,-0.036382896698817536,-0.08248531814989787,0.16158296406555905
-30.0,-30.0,-30.0,0.0,-30.0,30.0,2109935332939071.2,-0.14018791370304745,-0.060667942454521784,-0.03638289669881577,0.0030302322987088605,0.09162941016172964
-30.0,-30.0,-30.0,0.0,0.0,-30.0,2109935332939071.5,-0.14018791370304745,-0.060667942454521756,-0.036382896698817536,0.006459264604937096,-0.2034434868948582
-30.0,-30.0,-30.0,0.0,0.0,0.0,2109935332939071.2,-0.1401879137030474,-0.060667942454521756,-4.306199788413759,-3.1077667363338852,5.51987268763389
-30.0,-30.0,-30.0,0.0,0.0,30.0,2109935332939071.0,-0.14018791370304745,-0.060667942454521756,-0.036382896698817536,-0.3321915798960006,0.18795857052503856
-30.0,-30.0,-30.0,0.0,30.0,-30.0,2109935332939071.2,-0.14018791370304742,-0.060667942454521784,-0.036382896698817536,-0.15127383656168733,-0.020982308454197365
-30.0,-30.0,-30.0,0.0,30.0,0.0,2109935332939071.5,-0.14018791370304745,-0.06066794245452177,-0.036382896698817536,0.04200095179367552,-0.17706788043537872
-30.0,-30.0,-30.0,0.0,30.0,30.0,2109935332939071.2,-0.14018791370304742,-0.060667942454521756,-0.03638289669881577,-0.10551229797751954,-0.03364364611715978
-30.0,-30.0,-30.0,30.0,-30.0,-30.0,2109935332939090.5,-0.14018791370304745,-0.060667942454521784,-29.248283507735472,0.15326653842272556,-0.04178059719323779
-30.0,-30.0,-30.0,30.0,-30.0,0.0,2109935332939090.2,-0.14018791370304748,-0.0606679424545218,-29.248283507735458,-0.08248531814989789,0.16158296406555905
-30.0,-30.0,-30.0,30.0,-30.0,30.0,2109935332939090.2,-0.14018791370304742,-0.06066794245452174,-29.24828350773548,0.0030302322987088622,0.09162941016172964
-30.0,-30.0,-30.0,30.0,0.0,-30.0,2109935332939090.2,-0.14018791370304742,-0.06066794245452177,-32.32990675115123,-2.282038675831361,-0.2034434868948582
-30.0,-30.0,-30.0,30.0,0.0,0.0,2109935332939090.2,-0.14018791370304742,-0.060667942454521756,-35.1495757986673,-10.555321123279164,24.617905268641223
-30.0,-30.0,-30.0,30.0,0.0,30.0,2109935332939090.0,-0.14018791370304745,-0.06066794245452174,-32.32990675115122,-2.6206895203322973,0.18795857052503848
-30.0,-30.0,-30.0,30.0,30.0,-30.0,2109935332939090.2,-0.14018791370304745,-0.0606679424545218,-24.55136148067272,0.4832738889387522,-0.02098230845419738
-30.0,-30.0,-30.0,30.0,30.0,0.0,2109935332939090.2,-0.14018791370304745,-0.060667942454521756,-24.5513614806727,0.6765486772941152,-0.17706788043537872
-30.0,-30.0,-30.0,30.0,30.0,30.0,2109935332939090.2,-0.14018791370304742,-0.06066794245452174,-24.55136148067267,0.52903542752292,-0.03364364611715978
-30.0,-30.0,0.0,-30.0,-30.0,-30.0,2109935332939090.2,-0.5711909187137156,0.027683227748726898,25.178128808277926,0.15326653842272556,-0.04178059719323779
-30.0,-30.0,0.0,-30.0,-30.0,0.0,2109935332939090.0,-0.5711909187137157,0.02768322774872691,25.178128808277926,-0.08248531814989787,0.16158296406555905
-30.0,-30.0,0.0,-30.0,-30.0,30.0,2109935332939090.0,-0.5711909187137157,0.02768322774872692,25.178128808277926,0.0030302322987088622,0.09162941016172965
-30.0,-30.0,0.0,-30.0,0.0,-30.0,2109935332939090.0,-0.5711909187137156,0.027683227748726932,25.17812880827791,0.006459264604937097,-0.20344348689485817
-30.0,-30.0,0.0,-30.0,0.0,0.0,2109935332939089.8,-0.5711909187137156,0.027683227748726905,25.17812880827792,-0.13122847916738123,-0.05019374657776245
-30.0,-30.0,0.0,-30.0,0.0,30.0,2109935332939089.8,-0.5711909187137157,0.02768322774872692,25.17812880827791,-0.3321915798960007,0.18795857052503856
-30.0,-30.0,0.0,-30.0,30.0,-30.0,2109935332939089.8,-0.5711909187137156,0.027683227748726905,25.17812880827792,-0.15127383656168733,-0.020982308454197365
-30.0,-30.0,0.0,-30.0,30.0,0.0,2109935332939090.0,-0.5711909187137157,0.027683227748726905,25.17812880827791,0.042000951793675516,-0.1770678804353787
-30.0,-30.0,0.0,-30.0,30.0,30.0,2109935332939090.0,-0.5711909187137156,0.027683227748726932,25.178128808277904,-0.10551229797751954,-0.03364364611715978
-30.0,-30.0,0.0,0.0,-30.0,-30.0,2109935332939071.5,-0.0419010015747015,0.02768322774872691,-0.03638289669881754,0.15326653842272556,-0.0417805971932378
-30.0,-30.0,0.0,0.0,-30.0,0.0,2109935332939071.2,-0.0419010015747015,0.02768322774872691,-0.036382896698817536,-0.08248531814989789,0.16158296406555905
-30.0,-30.0,0.0,0.0,-30.0,30.0,2109935332939071.2,-0.04190100157470151,0.02768322774872692,-0.036382896698817536,0.0030302322987088622,0.09162941016172965
-30.0,-30.0,0.0,0.0,0.0,-30.0,2109935332939071.2,-0.04190100157470151,0.02768322774872691,-0.03638289669881754,0.006459264604937097,-0.2034434868948582
-30.0,-30.0,0.0,0.0,0.0,0.0,2109935332939071.2,-0.0419010015747015,0.027683227748726905,-4.306199788413759,-3.1077667363338852,5.5198726876338915
-30.0,-30.0,0.0,0.0,0.0,30.0,2109935332939071.0,-0.0419010015747015,0.02768322774872692,-0.036382896698817536,-0.3321915798960006,0.18795857052503856
-30.0,-30.0,0.0,0.0,30.0,-30.0,2109935332939071.0,-0.0419010015747015,0.027683227748726905,-0.03638289669881754,-0.15127383656168733,-0.02098230845419738
-30.0,-30.0,0.0,0.0,30.0,0.0,2109935332939071.2,-0.0419010015747015,0.027683227748726905,-0.036382896698817536,0.042000951793675516,-0.1770678804353787
-30.0,-30.0,0.0,0.0,30.0,30.0,2109935332939071.2,-0.0419010015747015,0.02768322774872692,-0.036382896698817536,-0.10551229797751957,-0.03364364611715977
-30.0,-30.0,0.0,30.0,-30.0,-30.0,2109935332939090.5,-0.0419010015747015,0.02768322774872692,-29.248283507735458,0.15326653842272556,-0.0417805971932378
-30.0,-30.0,0.0,30.0,-30.0,0.0,2109935332939090.2,-0.04190100157470151,0.02768322774872692,-29.248283507735458,-0.0824853181498979,0.16158296406555908
-30.0,-30.0,0.0,30.0,-30.0,30.0,2109935332939091.0,-0.0419010015747015,0.027683227748726905,-29.24828350773548,0.0030302322987088627,0.09162941016172965
-30.0,-30.0,0.0,30.0,0.0,-30.0,2109935332939090.2,-0.0419010015747015,0.02768322774872692,-32.32990675115124,-2.282038675831361,-0.2034434868948582
-30.0,-30.0,0.0,30.0,0.0,0.0,2109935332939090.0,-0.0419010015747015,0.02768322774872692,-35.1495757986673,-10.555321123279167,24.617905268641216
-30.0,-30.0,0.0,30.0,0.0,30.0,2109935332939090.0,-0.041901001574701516,0.02768322774872689,-32.32990675115124,-2.6206895203322973,0.18795857052503856
-30.0,-30.0,0.0,30.0,30.0,-30.0,2109935332939090.0,-0.041901001574701516,0.02768322774872692,-24.551361480672732,0.4832738889387523,-0.02098230845419738
-30.0,-30.0,0.0,30.0,30.0,0.0,2109935332939090.2,-0.0419010015747015,0.02768322774872692,-24.55136148067274,0.676548677294115,-0.1770678804353787
-30.0,-30.0,0.0,30.0,30.0,30.0,2109935332939090.2,-0.0419010015747015,0.027683227748726905,-24.551361480672774,0.52903542752292,-0.03364364611715977
-30.0,-30.0,30.0,-30.0,-30.0,-30.0,2109935332939090.8,0.287208198268301,4.030927459563454,25.11523845628592,0.15326653842272558,-0.0417805971932378
-30.0,-30.0,30.0,-30.0,-30.0,0.0,2109935332939090.5,0.287208198268301,4.030927459563454,25.115238456285926,-0.08248531814989789,0.16158296406555905
-30.0,-30.0,30.0,-30.0,-30.0,30.0,2109935332939090.8,0.2872081982683019,4.0309274595634506,25.11523845628591,0.0030302322987088605,0.09162941016172967
-30.0,-30.0,30.0,-30.0,0.0,-30.0,2109935332939090.8,0.287208198268301,4.030927459563459,25.11523845628592,0.006459264604937096,-0.2034434868948582
-30.0,-30.0,30.0,-30.0,0.0,0.0,2109935332939090.5,0.287208198268301,4.030927459563445,25.115238456285926,-0.13122847916738123,-0.05019374657776245
-30.0,-30.0,30.0,-30.0,0.0,30.0,2109935332939090.2,0.287208198268301,4.030927459563447,25.115238456285926,-0.3321915798960006,0.18795857052503853
-30.0,-30.0,30.0,-30.0,30.0,-30.0,2109935332939090.5,0.287208198268301,4.030927459563459,25.115238456285926,-0.1512738365616873,-0.020982308454197393
-30.0,-30.0,30.0,-30.0,30.0,0.0,2109935332939090.8,0.287208198268301,4.030927459563454,25.115238456285926,0.04200095179367551,-0.1770678804353787
-30.0,-30.0,30.0,-30.0,30.0,30.0,2109935332939090.5,0.287208198268301,4.030927459563454,25.115238456285898,-0.10551229797751957,-0.03364364611715977
-30.0,-30.0,30.0,0.0,-30.0,-30.0,2109935332939072.0,-0.7060905367531521,-10.232682167840172,-0.0363828966988171,0.15326653842272558,-0.0417805971932378
-30.0,-30.0,30.0,0.0,-30.0,0.0,2109935332939072.0,-0.7060905367531521,-10.23268216784017,-0.0363828966988171,-0.08248531814989789,0.16158296406555908
-30.0,-30.0,30.0,0.0,-30.0,30.0,2109935332939072.0,-0.7060905367531521,-10.232682167840172,-0.03638289669881754,0.0030302322987088622,0.09162941016172965
-30.0,-30.0,30.0,0.0,0.0,-30.0,2109935332939072.0,-0.7060905367531521,-10.23268216784017,-0.0363828966988171,0.006459264604937093,-0.2034434868948582
-30.0,-30.0,30.0,0.0,0.0,0.0,2109935332939071.8,-0.7060905367531521,-10.232682167840176,-4.306199788413758,-3.107766736333885,5.5198726876338915
-30.0,-30.0,30.0,0.0,0.0,30.0,2109935332939071.8,-0.7060905367531521,-10.232682167840172,-0.03638289669881754,-0.3321915798960006,0.18795857052503853
-30.0,-30.0,30.0,0.0,30.0,-30.0,2109935332939071.8,-0.7060905367531521,-10.232682167840176,-0.0363828966988171,-0.15127383656168733,-0.02098230845419738
-30.0,-30.0,30.0,0.0,30.0,0.0,2109935332939072.0,-0.7060905367531521,-10.232682167840174,-0.0363828966988171,0.042000951793675516,-0.1770678804353787
-30.0,-30.0,30.0,0.0,30.0,30.0,2109935332939071.8,-0.7060905367531526,-10.232682167840172,-0.03638289669881754,-0.10551229797751957,-0.03364364611715977
-30.0,-30.0,30.0,30.0,-30.0,-30.0,2109935332939091.0,-0.7060905367531521,-10.232682167840172,-29.248283507735458,0.15326653842272558,-0.041780597193237845
-30.0,-30.0,30.0,30.0,-30.0,0.0,2109935332939090.8,-0.7060905367531521,-10.232682167840172,-29.248283507735472,-0.08248531814989789,0.16158296406555905
-30.0,-30.0,30.0,30.0,-30.0,30.0,2109935332939091.0,-0.7060905367531521,-10.232682167840172,-29.248283507735444,0.0030302322987088622,0.09162941016172965
-30.0,-30.0,30.0,30.0,0.0,-30.0,2109935332939091.0,-0.7060905367531521,-10.232682167840172,-32.32990675115124,-2.2820386758313598,-0.2034434868948582
-30.0,-30.0,30.0,30.0,0.0,0.0,2109935332939090.8,-0.7060905367531521,-10.232682167840172,-35.1495757986673,-10.555321123279164,24.617905268641223
-30.0,-30.0,30.0,30.0,0.0,30.0,2109935332939090.5,-0.7060905367531521,-10.232682167840172,-32.32990675115123,-2.6206895203322973,0.18795857052503853
-30.0,-30.0,30.0,30.0,30.0,-30.0,2109935332939090.8,-0.7060905367531521,-10.232682167840172,-24.55136148067271,0.4832738889387522,-0.020982308454197393
-30.0,-30.0,30.0,30.0,30.0,0.0,2109935332939091.0,-0.7060905367531521,-10.232682167840172,-24.55136148067274,0.6765486772941152,-0.1770678804353787
-30.0,-30.0,30.0,30.0,30.0,30.0,2109935332939090.8,-0.7060905367531521,-10.232682167840172,-24.551361480672732,0.52903542752292,-0.03364364611715978
-30.0,0.0,-30.0,-30.0,-30.0,-30.0,2109935332939090.0,2.116039419416952,0.02754367464549335,31.940593512075424,0.15326653842272558,-0.04178059719323782
-30.0,0.0,-30.0,-30.0,-30.0,0.0,2109935332939089.8,2.116039419416952,0.02754367464549335,31.940593512075424,-0.08248531814989789,0.16158296406555905
-30.0,0.0,-30.0,-30.0,-30.0,30.0,2109935332939089.8,2.116039419416952,0.02754367464549335,31.940593512075424,0.003030232298708864,0.09162941016172964
-30.0,0.0,-30.0,-30.0,0.0,-30.0,2109935332939089.8,2.116039419416952,0.027543674645493336,31.94059351207541,0.006459264604937096,-0.2034434868948582
-30.0,0.0,-30.0,-30.0,0.0,0.0,2109935332939089.8,2.116039419416952,0.02754367464549335,31.94059351207541,-0.13122847916738126,-0.05019374657776245
-30.0,0.0,-30.0,-30.0,0.0,30.0,2109935332939089.5,2.116039419416952,0.027543674645493343,31.940593512075424,-0.3321915798960006,0.18795857052503848
-30.0,0.0,-30.0,-30.0,30.0,-30.0,2109935332939089.8,2.116039419416952,0.027543674645493343,31.940593512075424,-0.1512738365616873,-0.02098230845419738
-30.0,0.0,-30.0,-30.0,30.0,0.0,2109935332939090.0,2.116039419416952,0.02754367464549335,31.940593512075424,0.04200095179367551,-0.1770678804353787
-30.0,0.0,-30.0,-30.0,30.0,30.0,2109935332939089.8,2.116039419416952,0.027543674645493347,31.940593512075395,-0.10551229797751957,-0.03364364611715976
-30.0,0.0,-30.0,0.0,-30.0,-30.0,2109935332939071.2,0.08806741875217161,0.027543674645493357,-0.036382896698817536,0.15326653842272556,-0.04178059719323782
-30.0,0.0,-30.0,0.0,-30.0,0.0,2109935332939071.0,0.0880674187521716,0.027543674645493336,-0.036382896698817536,-0.08248531814989787,0.16158296406555908
-30.0,0.0,-30.0,0.0,-30.0,30.0,2109935332939071.2,0.08806741875217161,0.027543674645493336,-0.03638289669881577,0.003030232298708864,0.09162941016172962
-30.0,0.0,-30.0,0.0,0.0,-30.0,2109935332939071.2,0.0880674187521716,0.02754367464549335,-0.036382896698817536,0.006459264604937089,-0.2034434868948582
-30.0,0.0,-30.0,0.0,0.0,0.0,2109935332939071.0,0.0880674187521716,0.02754367464549333,-4.306199788413759,-3.1077667363338852,5.5198726876338915
-30.0,0.0,-30.0,0.0,0.0,30.0,2109935332939070.8,0.0880674187521716,0.02754367464549333,-0.036382896698817536,-0.3321915798960007,0.1879585705250385
-30.0,0.0,-30.0,0.0,30.0,-30.0,2109935332939071.0,0.08806741875217161,0.02754367464549335,-0.036382896698817536,-0.15127383656168733,-0.020982308454197365
-30.0,0.0,-30.0,0.0,30.0,0.0,2109935332939071.2,0.08806741875217161,0.02754367464549333,-0.036382896698817536,0.042000951793675516,-0.1770678804353787
-30.0,0.0,-30.0,0.0,30.0,30.0,2109935332939071.0,0.08806741875217158,0.027543674645493336,-0.03638289669881621,-0.10551229797751957,-0.03364364611715978
-30.0,0.0,-30.0,30.0,-30.0,-30.0,2109935332939090.2,0.0880674187521716,0.027543674645493336,-29.248283507735458,0.15326653842272553,-0.04178059719323782
-30.0,0.0,-30.0,30.0,-30.0,0.0,2109935332939090.0,0.08806741875217161,0.02754367464549335,-29.248283507735458,-0.08248531814989789,0.1615829640655591
-30.0,0.0,-30.0,30.0,-30.0,30.0,2109935332939090.0,0.08806741875217158,0.02754367464549335,-29.248283507735408,0.003030232298708864,0.09162941016172964
-30.0,0.0,-30.0,30.0,0.0,-30.0,2109935332939090.0,0.08806741875217158,0.027543674645493336,-32.32990675115123,-2.2820386758313598,-0.2034434868948582
-30.0,0.0,-30.0,30.0,0.0,0.0,2109935332939090.0,0.08806741875217161,0.02754367464549335,-35.1495757986673,-10.555321123279164,24.617905268641216
-30.0,0.0,-30.0,30.0,0.0,30.0,2109935332939089.8,0.08806741875217161,0.027543674645493357,-32.32990675115122,-2.6206895203322973,0.18795857052503853
-30.0,0.0,-30.0,30.0,30.0,-30.0,2109935332939090.0,0.08806741875217161,0.027543674645493343,-24.551361480672732,0.4832738889387523,-0.020982308454197393
-30.0,0.0,-30.0,30.0,30.0,0.0,2109935332939090.2,0.0880674187521716,0.02754367464549335,-24.551361480672707,0.676548677294115,-0.1770678804353787
-30.0,0.0,-30.0,30.0,30.0,30.0,2109935332939090.0,0.0880674187521716,0.02754367464549335,-24.55136148067267,0.52903542752292,-0.03364364611715977
-30.0,0.0,0.0,-30.0,-30.0,-30.0,2109935332939090.0,11.613792048916663,-6.549366026588276,35.21758486423079,0.15326653842272556,-0.041780597193237776
-30.0,0.0,0.0,-30.0,-30.0,0.0,2109935332939089.8,11.613792048916666,-6.549366026588278,35.217584864230794,-0.08248531814989789,0.16158296406555905
-30.0,0.0,0.0,-30.0,-30.0,30.0,2109935332939089.8,11.613792048916666,-6.549366026588274,35.21758486423078,0.003030232298708864,0.09162941016172967
-30.0,0.0,0.0,-30.0,0.0,-30.0,2109935332939089.8,11.613792048916666,-6.549366026588276,35.21758486423079,0.006459264604937093,-0.2034434868948582
-30.0,0.0,0.0,-30.0,0.0,0.0,2109935332939089.8,11.613792048916666,-6.549366026588272,35.21758486423078,-0.13122847916738123,-0.050193746577762446
-30.0,0.0,0.0,-30.0,0.0,30.0,2109935332939089.5,11.613792048916666,-6.549366026588276,35.217584864230794,-0.3321915798960006,0.18795857052503853
-30.0,0.0,0.0,-30.0,30.0,-30.0,2109935332939089.8,11.613792048916666,-6.549366026588276,35.21758486423077,-0.15127383656168733,-0.020982308454197365
-30.0,0.0,0.0,-30.0,30.0,0.0,2109935332939089.8,11.613792048916666,-6.549366026588274,35.21758486423078,0.04200095179367552,-0.1770678804353787
-30.0,0.0,0.0,-30.0,30.0,30.0,2109935332939089.8,11.613792048916666,-6.549366026588274,35.217584864230766,-0.10551229797751957,-0.03364364611715977
-30.0,0.0,0.0,0.0,-30.0,-30.0,2109935332939071.2,3.4244921838181295,-3.9057950835284245,4.691376514562125,0.15326653842272556,-0.04178059719323782
-30.0,0.0,0.0,0.0,-30.0,0.0,2109935332939071.0,3.4244921838181295,-3.905795083528424,4.691376514562125,-0.08248531814989787,0.16158296406555908
-30.0,0.0,0.0,0.0,-30.0,30.0,2109935332939071.0,3.4244921838181295,-3.905795083528424,4.691376514562126,0.003030232298708864,0.09162941016172965
-30.0,0.0,0.0,0.0,0.0,-30.0,2109935332939071.0,3.4244921838181295,-3.9057950835284228,4.691376514562129,0.006459264604937096,-0.2034434868948582
-30.0,0.0,0.0,0.0,0.0,0.0,2109935332939071.0,3.4244921838181295,-3.9057950835284254,0.42155962284718296,-3.107766736333887,5.5198726876338915
-30.0,0.0,0.0,0.0,0.0,30.0,2109935332939070.8,3.4244921838181295,-3.905795083528424,4.691376514562125,-0.3321915798960007,0.18795857052503853
-30.0,0.0,0.0,0.0,30.0,-30.0,2109935332939071.0,3.4244921838181295,-3.905795083528424,4.691376514562129,-0.15127383656168733,-0.020982308454197365
-30.0,0.0,0.0,0.0,30.0,0.0,2109935332939071.2,3.4244921838181295,-3.9057950835284228,4.691376514562127,0.04200095179367552,-0.1770678804353787
-30.0,0.0,0.0,0.0,30.0,30.0,2109935332939071.0,3.4244921838181295,-3.905795083528424,4.691376514562129,-0.10551229797751957,-0.03364364611715977
-30.0,0.0,0.0,30.0,-30.0,-30.0,2109935332939090.2,0.13112509209124024,0.08081619611612638,-29.248283507735458,0.15326653842272556,-0.04178059719323779
-30.0,0.0,0.0,30.0,-30.0,0.0,2109935332939090.0,0.13112509209124024,0.08081619611612642,-29.248283507735458,-0.08248531814989789,0.16158296406555905
-30.0,0.0,0.0,30.0,-30.0,30.0,2109935332939090.0,0.1311250920912402,0.08081619611612638,-29.24828350773548,0.003030232298708864,0.09162941016172965
-30.0,0.0,0.0,30.0,0.0,-30.0,2109935332939090.0,0.1311250920912402,0.0808161961161264,-32.32990675115123,-2.2820386758313598,-0.20344348689485817
-30.0,0.0,0.0,30.0,0.0,0.0,2109935332939090.0,0.13112509209124024,0.08081619611612641,-35.149575798667286,-10.555321123279164,24.617905268641223
-30.0,0.0,0.0,30.0,0.0,30.0,2109935332939089.8,0.13112509209124024,0.08081619611612641,-32.329906751151235,-2.6206895203322973,0.18795857052503853
-30.0,0.0,0.0,30.0,30.0,-30.0,2109935332939090.0,0.13112509209124024,0.0808161961161264,-24.551361480672732,0.4832738889387522,-0.020982308454197365
-30.0,0.0,0.0,30.0,30.0,0.0,2109935332939090.0,0.13112509209124024,0.08081619611612641,-24.55136148067273,0.6765486772941152,-0.1770678804353787
-30.0,0.0,0.0,30.0,30.0,30.0,2109935332939090.0,0.13112509209124024,0.0808161961161264,-24.551361480672707,0.52903542752292,-0.03364364611715975
-30.0,0.0,30.0,-30.0,-30.0,-30.0,2109935332939089.5,13.160830387375649,18.955568168761612,49.83736989131845,0.15326653842272558,-0.04178059719323782
-30.0,0.0,30.0,-30.0,-30.0,0.0,2109935332939089.2,13.160830387375649,18.955568168761616,49.83736989131845,-0.08248531814989787,0.16158296406555905
-30.0,0.0,30.0,-30.0,-30.0,30.0,2109935332939089.5,13.160830387375649,18.955568168761616,49.83736989131845,0.0030302322987088605,0.09162941016172965
-30.0,0.0,30.0,-30.0,0.0,-30.0,2109935332939089.5,13.160830387375649,18.955568168761605,49.83736989131844,0.0064592646049371,-0.2034434868948582
-30.0,0.0,30.0,-30.0,0.0,0.0,2109935332939089.2,13.160830387375649,18.955568168761616,49.83736989131845,-0.13122847916738126,-0.050193746577762446
-30.0,0.0,30.0,-30.0,0.0,30.0,2109935332939089.0,13.160830387375649,18.955568168761612,49.83736989131844,-0.3321915798960006,0.18795857052503853
-30.0,0.0,30.0,-30.0,30.0,-30.0,2109935332939089.2,13.160830387375649,18.955568168761612,49.83736989131845,-0.15127383656168733,-0.02098230845419738
-30.0,0.0,30.0,-30.0,30.0,0.0,2109935332939089.5,13.160830387375649,18.955568168761616,49.83736989131845,0.04200095179367552,-0.1770678804353787
-30.0,0.0,30.0,-30.0,30.0,30.0,2109935332939089.2,13.160830387375649,18.955568168761616,49.837369891318424,-0.10551229797751957,-0.03364364611715977
-30.0,0.0,30.0,0.0,-30.0,-30.0,2109935332939070.8,4.868017885958191,12.010108268090017,-0.0363828966988171,0.15326653842272556,-0.04178059719323782
-30.0,0.0,30.0,0.0,-30.0,0.0,2109935332939070.5,4.868017885958191,12.01010826809002,-0.03638289669881754,-0.08248531814989789,0.16158296406555908
-30.0,0.0,30.0,0.0,-30.0,30.0,2109935332939070.8,4.868017885958191,12.010108268090017,-0.03638289669881753,0.0030302322987088622,0.09162941016172965
-30.0,0.0,30.0,0.0,0.0,-30.0,2109935332939070.8,4.868017885958191,12.010108268090017,-0.0363828966988171,0.006459264604937093,-0.2034434868948582
-30.0,0.0,30.0,0.0,0.0,0.0,2109935332939070.5,4.868017885958191,12.01010826809002,-4.3061997884137595,-3.107766736333888,5.5198726876338915
-30.0,0.0,30.0,0.0,0.0,30.0,2109935332939070.2,4.868017885958191,12.010108268090017,-0.036382896698817536,-0.3321915798960007,0.18795857052503856
-30.0,0.0,30.0,0.0,30.0,-30.0,2109935332939070.5,4.868017885958191,12.010108268090013,-0.0363828966988171,-0.15127383656168733,-0.02098230845419738
-30.0,0.0,30.0,0.0,30.0,0.0,2109935332939070.8,4.868017885958191,12.01010826809002,-0.03638289669881754,0.04200095179367552,-0.17706788043537872
-30.0,0.0,30.0,0.0,30.0,30.0,2109935332939070.5,4.868017885958191,12.010108268090027,-0.03638289669881753,-0.10551229797751954,-0.033643646117159795
-30.0,0.0,30.0,30.0,-30.0,-30.0,2109935332939089.8,4.868017885958191,12.01010826809002,-29.248283507735458,0.15326653842272556,-0.04178059719323782
-30.0,0.0,30.0,30.0,-30.0,0.0,2109935332939089.5,4.868017885958191,12.010108268090027,-29.248283507735472,-0.08248531814989789,0.16158296406555908
-30.0,0.0,30.0,30.0,-30.0,30.0,2109935332939089.8,4.868017885958191,12.01010826809002,-29.24828350773545,0.0030302322987088605,0.09162941016172965
-30.0,0.0,30.0,30.0,0.0,-30.0,2109935332939089.8,4.868017885958191,12.01010826809002,-32.32990675115123,-2.2820386758313598,-0.2034434868948582
-30.0,0.0,30.0,30.0,0.0,0.0,2109935332939089.5,4.868017885958191,12.010108268090017,-35.1495757986673,-10.555321123279164,24.617905268641223
-30.0,0.0,30.0,30.0,0.0,30.0,2109935332939089.2,4.868017885958191,12.010108268090017,-32.32990675115122,-2.6206895203322973,0.18795857052503853
-30.0,0.0,30.0,30.0,30.0,-30.0,2109935332939089.5,4.868017885958191,12.01010826809002,-24.551361480672732,0.4832738889387522,-0.020982308454197393
-30.0,0.0,30.0,30.0,30.0,0.0,2109935332939089.8,4.868017885958191,12.01010826809002,-24.551361480672707,0.6765486772941152,-0.1770678804353787
-30.0,0.0,30.0,30.0,30.0,30.0,2109935332939089.5,4.868017885958191,12.01010826809002,-24.55136148067274,0.52903542752292,-0.033643646117159795
-30.0,30.0,-30.0,-30.0,-30.0,-30.0,2109935332939090.0,0.16735696776380643,0.06916524595312025,29.09585202507722,0.15326653842272556,-0.04178059719323779
-30.0,30.0,-30.0,-30.0,-30.0,0.0,2109935332939089.8,0.16735696776380646,0.06916524595312026,29.095852025077207,-0.08248531814989789,0.16158296406555908
-30.0,30.0,-30.0,-30.0,-30.0,30.0,2109935332939089.8,0.1673569677638064,0.06916524595312022,29.095852025077193,0.003030232298708864,0.09162941016172965
-30.0,30.0,-30.0,-30.0,0.0,-30.0,2109935332939088.8,0.16735696776380637,0.06916524595312024,29.09585202507722,0.006459264604937086,-0.2034434868948582
-30.0,30.0,-30.0,-30.0,0.0,0.0,2109935332939089.8,0.16735696776380643,0.06916524595312024,29.09585202507722,-0.13122847916738126,-0.05019374657776245
-30.0,30.0,-30.0,-30.0,0.0,30.0,2109935332939089.5,0.16735696776380643,0.06916524595312025,29.095852025077207,-0.3321915798960007,0.18795857052503853
-30.0,30.0,-30.0,-30.0,30.0,-30.0,2109935332939089.5,0.1673569677638064,0.06916524595312024,29.095852025077207,-0.1512738365616873,-0.02098230845419738
-30.0,30.0,-30.0,-30.0,30.0,0.0,2109935332939089.8,0.16735696776380643,0.06916524595312026,29.095852025077207,0.04200095179367553,-0.1770678804353787
-30.0,30.0,-30.0,-30.0,30.0,30.0,2109935332939089.8,0.1673569677638064,0.06916524595312021,29.095852025077207,-0.10551229797751957,-0.03364364611715976
-30.0,30.0,-30.0,0.0,-30.0,-30.0,2109935332939071.2,0.1673569677638064,0.06916524595312025,-0.036382896698817536,0.15326653842272558,-0.04178059719323779
-30.0,30.0,-30.0,0.0,-30.0,0.0,2109935332939071.0,0.1673569677638064,0.06916524595312024,-0.036382896698817536,-0.0824853181498979,0.16158296406555908
-30.0,30.0,-30.0,0.0,-30.0,30.0,2109935332939070.0,0.16735696776380643,0.06916524595312025,-0.03638289669881577,0.003030232298708864,0.09162941016172964
-30.0,30.0,-30.0,0.0,0.0,-30.0,2109935332939071.0,0.16735696776380643,0.06916524595312024,-0.036382896698817536,0.006459264604937096,-0.2034434868948582
-30.0,30.0,-30.0,0.0,0.0,0.0,2109935332939071.0,0.1673569677638064,0.06916524595312024,-4.3061997884137595,-3.1077667363338852,5.519872687633888
-30.0,30.0,-30.0,0.0,0.0,30.0,2109935332939070.8,0.16735696776380643,0.06916524595312024,-0.036382896698817536,-0.3321915798960006,0.18795857052503853
-30.0,30.0,-30.0,0.0,30.0,-30.0,2109935332939071.0,0.1673569677638064,0.06916524595312024,-0.036382896698817536,-0.15127383656168733,-0.020982308454197365
-30.0,30.0,-30.0,0.0,30.0,0.0,2109935332939071.0,0.1673569677638064,0.06916524595312024,-0.036382896698817536,0.04200095179367552,-0.1770678804353787
-30.0,30.0,-30.0,0.0,30.0,30.0,2109935332939071.0,0.16735696776380637,0.06916524595312021,-0.03638289669881577,-0.10551229797751957,-0.03364364611715977
-30.0,30.0,-30.0,30.0,-30.0,-30.0,2109935332939090.2,0.1673569677638064,0.06916524595312024,-29.248283507735472,0.15326653842272558,-0.0417805971932378
-30.0,30.0,-30.0,30.0,-30.0,0.0,2109935332939090.0,0.16735696776380643,0.06916524595312024,-29.248283507735472,-0.08248531814989789,0.1615829640655591
-30.0,30.0,-30.0,30.0,-30.0,30.0,2109935332939090.0,0.1673569677638064,0.06916524595312024,-29.24828350773545,0.003030232298708864,0.09162941016172965
-30.0,30.0,-30.0,30.0,0.0,-30.0,2109935332939089.0,0.16735696776380643,0.06916524595312024,-32.32990675115124,-2.2820386758313598,-0.20344348689485817
-30.0,30.0,-30.0,30.0,0.0,0.0,2109935332939090.0,0.16735696776380643,0.06916524595312026,-35.149575798667286,-10.555321123279164,24.617905268641216
-30.0,30.0,-30.0,30.0,0.0,30.0,2109935332939089.8,0.16735696776380643,0.06916524595312025,-32.32990675115121,-2.6206895203322977,0.18795857052503856
-30.0,30.0,-30.0,30.0,30.0,-30.0,2109935332939089.8,0.16735696776380643,0.06916524595312026,-24.55136148067272,0.4832738889387522,-0.02098230845419738
-30.0,30.0,-30.0,30.0,30.0,0.0,2109935332939090.0,0.1673569677638064,0.06916524595312024,-24.551361480672707,0.676548677294115,-0.1770678804353787
-30.0,30.0,-30.0,30.0,30.0,30.0,2109935332939090.0,0.16735696776380643,0.06916524595312026,-24.551361480672707,0.52903542752292,-0.033643646117159774
-30.0,30.0,0.0,-30.0,-30.0,-30.0,2109935332939090.0,0.08235347271813512,-0.002751196898103228,29.09585202507722,0.15326653842272556,-0.04178059719323782
-30.0,30.0,0.0,-30.0,-30.0,0.0,2109935332939089.8,0.08235347271813509,-0.002751196898103228,29.09585202507722,-0.08248531814989789,0.16158296406555905
-30.0,30.0,0.0,-30.0,-30.0,30.0,2109935332939089.8,0.08235347271813509,-0.002751196898103221,29.09585202507722,0.0030302322987088605,0.09162941016172965
-30.0,30.0,0.0,-30.0,0.0,-30.0,2109935332939089.8,0.0823534727181351,-0.002751196898103228,29.095852025077207,0.006459264604937093,-0.20344348689485817
-30.0,30.0,0.0,-30.0,0.0,0.0,2109935332939089.8,0.0823534727181351,-0.002751196898103228,29.095852025077207,-0.13122847916738123,-0.05019374657776245
-30.0,30.0,0.0,-30.0,0.0,30.0,2109935332939089.5,0.08235347271813509,-0.002751196898103228,29.09585202507722,-0.3321915798960006,0.18795857052503853
-30.0,30.0,0.0,-30.0,30.0,-30.0,2109935332939089.8,0.08235347271813509,-0.002751196898103221,29.095852025077257,-0.15127383656168733,-0.020982308454197393
-30.0,30.0,0.0,-30.0,30.0,0.0,2109935332939090.0,0.08235347271813509,-0.002751196898103235,29.09585202507722,0.04200095179367552,-0.1770678804353787
-30.0,30.0,0.0,-30.0,30.0,30.0,2109935332939089.8,0.08235347271813509,-0.002751196898103228,29.095852025077207,-0.10551229797751954,-0.03364364611715979
-30.0,30.0,0.0,0.0,-30.0,-30.0,2109935332939071.2,0.08235347271813509,-0.002751196898103228,-0.03638289669881754,0.15326653842272556,-0.0417805971932378
-30.0,30.0,0.0,0.0,-30.0,0.0,2109935332939071.0,0.08235347271813509,-0.002751196898103228,-0.036382896698817536,-0.08248531814989789,0.16158296406555908
-30.0,30.0,0.0,0.0,-30.0,30.0,2109935332939071.2,0.0823534727181351,-0.002751196898103214,-0.036382896698817536,0.0030302322987088605,0.09162941016172967
-30.0,30.0,0.0,0.0,0.0,-30.0,2109935332939071.2,0.0823534727181351,-0.002751196898103235,-0.03638289669881754,0.0064592646049370945,-0.2034434868948582
-30.0,30.0,0.0,0.0,0.0,0.0,2109935332939071.0,0.08235347271813509,-0.002751196898103221,-4.306199788413757,-3.1077667363338852,5.5198726876338915
-30.0,30.0,0.0,0.0,0.0,30.0,2109935332939070.8,0.0823534727181351,-0.0027511968981032246,-0.036382896698817536,-0.3321915798960007,0.18795857052503856
-30.0,30.0,0.0,0.0,30.0,-30.0,2109935332939071.0,0.08235347271813509,-0.002751196898103235,-0.03638289669881754,-0.15127383656168733,-0.020982308454197365
-30.0,30.0,0.0,0.0,30.0,0.0,2109935332939071.2,0.08235347271813512,-0.002751196898103214,-0.036382896698817536,0.042000951793675516,-0.1770678804353787
-30.0,30.0,0.0,0.0,30.0,30.0,2109935332939071.0,0.08235347271813509,-0.002751196898103228,-0.036382896698817536,-0.10551229797751957,-0.03364364611715978
-30.0,30.0,0.0,30.0,-30.0,-30.0,2109935332939090.2,0.0823534727181351,-0.002751196898103228,-29.248283507735458,0.15326653842272558,-0.0417805971932378
-30.0,30.0,0.0,30.0,-30.0,0.0,2109935332939090.0,0.08235347271813509,-0.002751196898103228,-29.24828350773548,-0.08248531814989789,0.16158296406555908
-30.0,30.0,0.0,30.0,-30.0,30.0,2109935332939090.0,0.0823534727181351,-0.002751196898103228,-29.248283507735444,0.0030302322987088605,0.09162941016172965
-30.0,30.0,0.0,30.0,0.0,-30.0,2109935332939090.0,0.0823534727181351,-0.002751196898103221,-32.32990675115124,-2.2820386758313598,-0.2034434868948582
-30.0,30.0,0.0,30.0,0.0,0.0,2109935332939090.0,0.0823534727181351,-0.002751196898103221,-35.14957579866731,-10.555321123279164,24.617905268641223
-30.0,30.0,0.0,30.0,0.0,30.0,2109935332939089.8,0.0823534727181351,-0.0027511968981032316,-32.32990675115124,-2.6206895203322973,0.1879585705250385
-30.0,30.0,0.0,30.0,30.0,-30.0,2109935332939090.0,0.08235347271813509,-0.002751196898103228,-24.55136148067274,0.48327388893875184,-0.020982308454197393
-30.0,30.0,0.0,30.0,30.0,0.0,2109935332939090.2,0.0823534727181351,-0.002751196898103214,-24.55136148067273,0.6765486772941152,-0.1770678804353787
-30.0,30.0,0.0,30.0,30.0,30.0,2109935332939090.0,0.08235347271813512,-0.002751196898103221,-24.551361480672732,0.52903542752292,-0.03364364611715978
-30.0,30.0,30.0,-30.0,-30.0,-30.0,2109935332939090.0,-0.04343371063138465,-9.69386570403817,30.69112179919531,0.15326653842272558,-0.04178059719323783
-30.0,30.0,30.0,-30.0,-30.0,0.0,2109935332939089.8,-0.04343371063138465,-9.693865704038172,30.691121799195297,-0.08248531814989789,0.16158296406555905
-30.0,30.0,30.0,-30.0,-30.0,30.0,2109935332939090.0,-0.04343371063138465,-9.69386570403817,30.691121799195283,0.0030302322987088622,0.09162941016172965
-30.0,30.0,30.0,-30.0,0.0,-30.0,2109935332939090.8,-0.04343371063138465,-9.69386570403817,30.691121799195297,0.0064592646049370945,-0.2034434868948582
-30.0,30.0,30.0,-30.0,0.0,0.0,2109935332939089.8,-0.04343371063138465,-9.69386570403817,30.69112179919531,-0.13122847916738126,-0.050193746577762446
-30.0,30.0,30.0,-30.0,0.0,30.0,2109935332939089.5,-0.04343371063138404,-9.69386570403817,30.691121799195297,-0.33219157989600057,0.1879585705250385
-30.0,30.0,30.0,-30.0,30.0,-30.0,2109935332939089.8,-0.04343371063138465,-9.69386570403817,30.69112179919531,-0.1512738365616873,-0.02098230845419738
-30.0,30.0,30.0,-30.0,30.0,0.0,2109935332939090.0,-0.04343371063138465,-9.69386570403817,30.69112179919531,0.042000951793675516,-0.1770678804353787
-30.0,30.0,30.0,-30.0,30.0,30.0,2109935332939089.8,-0.04343371063138465,-9.69386570403817,30.691121799195283,-0.10551229797751957,-0.03364364611715977
-30.0,30.0,30.0,0.0,-30.0,-30.0,2109935332939071.5,-0.20700828164775611,-9.146724174023474,-0.0363828966988171,0.15326653842272556,-0.04178059719323782
-30.0,30.0,30.0,0.0,-30.0,0.0,2109935332939071.2,-0.20700828164775611,-9.146724174023472,-0.0363828966988171,-0.08248531814989789,0.16158296406555908
-30.0,30.0,30.0,0.0,-30.0,30.0,2109935332939071.2,-0.20700828164775611,-9.146724174023472,-0.03638289669881754,0.003030232298708863,0.09162941016172967
-30.0,30.0,30.0,0.0,0.0,-30.0,2109935332939071.2,-0.20700828164775611,-9.146724174023472,-0.0363828966988171,0.006459264604937098,-0.2034434868948582
-30.0,30.0,30.0,0.0,0.0,0.0,2109935332939071.0,-0.20700828164775611,-9.146724174023472,-4.3061997884137595,-3.107766736333887,5.5198726876338915
-30.0,30.0,30.0,0.0,0.0,30.0,2109935332939071.0,-0.2070082816477568,-9.146724174023472,-0.03638289669881754,-0.3321915798960006,0.1879585705250385
-30.0,30.0,30.0,0.0,30.0,-30.0,2109935332939071.0,-0.20700828164775611,-9.146724174023472,-0.0363828966988171,-0.1512738365616873,-0.020982308454197393
-30.0,30.0,30.0,0.0,30.0,0.0,2109935332939071.2,-0.20700828164775611,-9.146724174023468,-0.0363828966988171,0.042000951793675516,-0.1770678804353787
-30.0,30.0,30.0,0.0,30.0,30.0,2109935332939071.0,-0.20700828164775611,-9.146724174023472,-0.03638289669881754,-0.10551229797751957,-0.03364364611715977
-30.0,30.0,30.0,30.0,-30.0,-30.0,2109935332939090.2,-0.20700828164775611,-9.146724174023472,-29.248283507735458,0.15326653842272556,-0.0417805971932378
-30.0,30.0,30.0,30.0,-30.0,0.0,2109935332939090.0,-0.20700828164775611,-9.146724174023472,-29.24828350773548,-0.08248531814989789,0.16158296406555908
-30.0,30.0,30.0,30.0,-30.0,30.0,2109935332939090.2,-0.2070082816477562,-9.146724174023472,-29.248283507735508,0.003030232298708864,0.09162941016172964
-30.0,30.0,30.0,30.0,0.0,-30.0,2109935332939091.0,-0.20700828164775611,-9.146724174023475,-32.32990675115123,-2.2820386758313598,-0.2034434868948582
-30.0,30.0,30.0,30.0,0.0,0.0,2109935332939090.0,-0.20700828164775611,-9.146724174023475,-35.149575798667286,-10.555321123279164,24.617905268641223
-30.0,30.0,30.0,30.0,0.0,30.0,2109935332939089.8,-0.2070082816477555,-9.146724174023472,-32.32990675115124,-2.6206895203322977,0.18795857052503856
-30.0,30.0,30.0,30.0,30.0,-30.0,2109935332939090.0,-0.20700828164775611,-9.146724174023472,-24.551361480672732,0.4832738889387522,-0.020982308454197365
-30.0,30.0,30.0,30.0,30.0,0.0,2109935332939090.2,-0.20700828164775611,-9.146724174023468,-24.551361480672732,0.676548677294115,-0.1770678804353787
-30.0,30.0,30.0,30.0,30.0,30.0,2109935332939090.0,-0.20700828164775611,-9.146724174023474,-24.551361480672732,0.52903542752292,-0.03364364611715978
0.0,-30.0,-30.0,-30.0,-30.0,-30.0,43877901.081165366,-0.660605713782001,-0.04625991081610634,122.71993034142484,0.006459264604937089,-0.20344348689485814
0.0,-30.0,-30.0,-30.0,-30.0,0.0,43877900.94347762,-0.660605713782001,-0.04625991081610635,122.71993034142484,-0.13122847916738126,-0.05019374657776246
0.0,-30.0,-30.0,-30.0,-30.0,30.0,43877900.74251452,-0.660605713782001,-0.04625991081610632,122.71993034142484,-0.3321915798960006,0.18795857052503853
0.0,-30.0,-30.0,-30.0,0.0,-30.0,43877900.92343227,-0.660605713782001,-0.04625991081610634,122.71993034142484,-0.15127383656168733,-0.020982308454197393
0.0,-30.0,-30.0,-30.0,0.0,0.0,43877901.11670706,-0.660605713782001,-0.046259910816106364,122.71993034142484,0.042000951793675516,-0.1770678804353787
0.0,-30.0,-30.0,-30.0,0.0,30.0,43877900.96919381,-0.660605713782001,-0.04625991081610634,122.71993034142484,-0.10551229797751957,-0.03364364611715978
0.0,-30.0,-30.0,-30.0,30.0,-30.0,43877901.02157842,-0.660605713782001,-0.04625991081610633,122.71993034142484,-0.05312768184433253,0.19697038389276122
0.0,-30.0,-30.0,-30.0,30.0,0.0,43877901.203266956,-0.660605713782001,-0.04625991081610635,122.71993034142484,0.1441858945890472,-0.0044322079935946584
0.0,-30.0,-30.0,-30.0,30.0,30.0,43877901.358721875,-0.660605713782001,-0.046259910816106344,122.71993034142484,0.2996407300079943,-0.19833773291119186
0.0,-30.0,-30.0,0.0,-30.0,-30.0,43877903.290178865,-0.13131579664299278,-0.046259910816106344,0.13158610910572932,0.006459264604937093,-0.2034434868948582
0.0,-30.0,-30.0,0.0,-30.0,0.0,43877903.168116085,-0.13131579664299278,-0.046259910816106344,0.13158610910572932,-0.13122847916738126,-0.050193746577762446
0.0,-30.0,-30.0,0.0,-30.0,30.0,43877902.96715298,-0.13131579664299278,-0.04625991081610635,0.13158610910572932,-0.3321915798960006,0.18795857052503856
0.0,-30.0,-30.0,0.0,0.0,-30.0,43877903.14807073,-0.13131579664299278,-0.04625991081610636,0.13158610910572932,-0.15127383656168736,-0.02098230845419738
0.0,-30.0,-30.0,0.0,0.0,0.0,43877903.325720556,-0.13131579664299278,-0.04625991081610635,-4.138230782609368,-2.9345373053720767,5.392998553774968
0.0,-30.0,-30.0,0.0,0.0,30.0,43877903.178207226,-0.1313157966429928,-0.04625991081610636,0.13158610910572932,-0.10551229797751957,-0.033643646117159795
0.0,-30.0,-30.0,0.0,30.0,-30.0,43877903.23059184,-0.1313157966429928,-0.04625991081610636,0.1315861091057311,-0.053127681844332544,0.19697038389276122
0.0,-30.0,-30.0,0.0,30.0,0.0,43877903.4279055,-0.1313157966429928,-0.046259910816106344,0.13158610910572932,0.1441858945890472,-0.0044322079935946316
0.0,-30.0,-30.0,0.0,30.0,30.0,43877903.583360255,-0.1313157966429928,-0.04625991081610636,0.13158610910572932,0.2996407300079943,-0.19833773291119186
0.0,-30.0,-30.0,30.0,-30.0,-30.0,43877900.96530985,-0.13131579664299278,-0.04625991081610633,-128.05923623021496,0.0064592646049371,-0.2034434868948582
0.0,-30.0,-30.0,30.0,-30.0,0.0,43877900.82762211,-0.1313157966429928,-0.04625991081610635,-128.05923623021496,-0.13122847916738126,-0.05019374657776244
0.0,-30.0,-30.0,30.0,-30.0,30.0,43877900.626659006,-0.13131579664299278,-0.04625991081610634,-128.05923623021496,-0.3321915798960007,0.18795857052503856
0.0,-30.0,-30.0,30.0,0.0,-30.0,43877900.80757675,-0.1313157966429928,-0.04625991081610635,-131.1408594736307,-2.4397717769979743,-0.020982308454197365
0.0,-30.0,-30.0,30.0,0.0,0.0,43877901.00085154,-0.13131579664299278,-0.04625991081610634,-133.96052852114678,-10.382091692318102,24.49103113478363
0.0,-30.0,-30.0,30.0,0.0,30.0,43877900.85333829,-0.1313157966429928,-0.04625991081610635,-131.1408594736307,-2.3940102384138067,-0.03364364611715978
0.0,-30.0,-30.0,30.0,30.0,-30.0,43877900.90572291,-0.1313157966429928,-0.04625991081610633,-123.36231420315225,0.5814200436561006,0.19697038389276125
0.0,-30.0,-30.0,30.0,30.0,0.0,43877901.08741152,-0.13131579664299278,-0.04625991081610636,-123.36231420315225,0.7787336200894802,-0.004432207993594634
0.0,-30.0,-30.0,30.0,30.0,30.0,43877901.24286635,-0.13131579664299278,-0.04625991081610632,-123.36231420315225,0.9341884555084273,-0.1983377329111919
0.0,-30.0,0.0,-30.0,-30.0,-30.0,43877901.0782762,-0.6733415897195277,-0.07227584008050775,122.71993034142484,0.0064592646049371,-0.2034434868948582
0.0,-30.0,0.0,-30.0,-30.0,0.0,43877900.956213504,-0.6733415897195277,-0.07227584008050773,122.71993034142484,-0.13122847916738123,-0.05019374657776246
0.0,-30.0,0.0,-30.0,-30.0,30.0,43877900.7552504,-0.6733415897195277,-0.07227584008050772,122.71993034142484,-0.3321915798960007,0.18795857052503856
0.0,-30.0,0.0,-30.0,0.0,-30.0,43877900.93616814,-0.6733415897195277,-0.07227584008050773,122.71993034142484,-0.15127383656168736,-0.020982308454197338
0.0,-30.0,0.0,-30.0,0.0,0.0,43877901.12944293,-0.6733415897195277,-0.07227584008050773,122.71993034142484,0.042000951793675516,-0.17706788043537872
0.0,-30.0,0.0,-30.0,0.0,30.0,43877901.50583339,-0.6733415897195277,-0.07227584008050773,122.71993034142484,-0.10551229797751957,-0.03364364611715978
0.0,-30.0,0.0,-30.0,30.0,-30.0,43877901.01868931,-0.6733415897195277,-0.07227584008050772,122.71993034142488,-0.053127681844332544,0.19697038389276128
0.0,-30.0,0.0,-30.0,30.0,0.0,43877901.21600291,-0.6733415897195277,-0.07227584008050772,122.71993034142488,0.1441858945890472,-0.004432207993594639
0.0,-30.0,0.0,-30.0,30.0,30.0,43877901.371457666,-0.6733415897195277,-0.07227584008050773,122.71993034142488,0.2996407300079943,-0.1983377329111919
0.0,-30.0,0.0,0.0,-30.0,-30.0,43877903.302914746,-0.1440516725805195,-0.07227584008050772,0.1315861091057302,0.006459264604937093,-0.2034434868948582
0.0,-30.0,0.0,0.0,-30.0,0.0,43877903.16522692,-0.14405167258051954,-0.07227584008050773,0.1315861091057302,-0.13122847916738123,-0.05019374657776243
0.0,-30.0,0.0,0.0,-30.0,30.0,43877902.979888864,-0.1440516725805195,-0.07227584008050772,0.13158610910572932,-0.33219157989600057,0.18795857052503845
0.0,-30.0,0.0,0.0,0.0,-30.0,43877903.160806604,-0.1440516725805195,-0.07227584008050772,0.1315861091057302,-0.15127383656168733,-0.02098230845419738
0.0,-30.0,0.0,0.0,0.0,0.0,43877903.33845643,-0.1440516725805195,-0.07227584008050772,-4.138230782609367,-2.9345373053720785,5.392998553774968
0.0,-30.0,0.0,0.0,0.0,30.0,43877903.74609689,-0.14405167258051954,-0.07227584008050772,0.13158610910572932,-0.10551229797751957,-0.03364364611715975
0.0,-30.0,0.0,0.0,30.0,-30.0,43877903.243327715,-0.14405167258051954,-0.07227584008050773,0.1315861091057311,-0.05312768184433252,0.19697038389276125
0.0,-30.0,0.0,0.0,30.0,0.0,43877903.44064137,-0.14405167258051954,-0.07227584008050772,0.1315861091057302,0.1441858945890472,-0.004432207993594662
0.0,-30.0,0.0,0.0,30.0,30.0,43877903.59609613,-0.14405167258051954,-0.07227584008050772,0.13158610910572932,0.2996407300079943,-0.19833773291119183
0.0,-30.0,0.0,30.0,-30.0,-30.0,43877900.96242077,-0.14405167258051954,-0.07227584008050772,-128.05923623021496,0.006459264604937079,-0.20344348689485817
0.0,-30.0,0.0,30.0,-30.0,0.0,43877900.84035798,-0.1440516725805195,-0.07227584008050772,-128.05923623021496,-0.13122847916738126,-0.05019374657776246
0.0,-30.0,0.0,30.0,-30.0,30.0,43877900.63939489,-0.1440516725805195,-0.07227584008050773,-128.05923623021496,-0.3321915798960006,0.18795857052503856
0.0,-30.0,0.0,30.0,0.0,-30.0,43877900.82031263,-0.14405167258051954,-0.07227584008050773,-131.1408594736307,-2.4397717769979756,-0.020982308454197365
0.0,-30.0,0.0,30.0,0.0,0.0,43877901.013587415,-0.14405167258051954,-0.07227584008050775,-133.96052852114678,-10.382091692318102,24.49103113478363
0.0,-30.0,0.0,30.0,0.0,30.0,43877901.38997787,-0.14405167258051954,-0.07227584008050775,-131.1408594736307,-2.3940102384138067,-0.033643646117159795
0.0,-30.0,0.0,30.0,30.0,-30.0,43877900.90283377,-0.14405167258051954,-0.07227584008050773,-123.36231420315225,0.5814200436561004,0.19697038389276122
0.0,-30.0,0.0,30.0,30.0,0.0,43877901.100147314,-0.14405167258051954,-0.07227584008050773,-123.36231420315225,0.7787336200894807,-0.004432207993594645
0.0,-30.0,0.0,30.0,30.0,30.0,43877901.25560223,-0.14405167258051954,-0.07227584008050775,-123.36231420315225,0.9341884555084273,-0.19833773291119186
0.0,-30.0,30.0,-30.0,-30.0,-30.0,43877901.13393825,0.7506704422625923,0.6033326555512815,122.65703998943286,0.006459264604937093,-0.20344348689485817
0.0,-30.0,30.0,-30.0,-30.0,0.0,43877900.99625051,0.7506704422625923,0.6033326555512832,122.65703998943286,-0.13122847916738126,-0.050193746577762446
0.0,-30.0,30.0,-30.0,-30.0,30.0,43877900.79528741,0.7506704422625923,0.6033326555512823,122.65703998943286,-0.3321915798960007,0.18795857052503853
0.0,-30.0,30.0,-30.0,0.0,-30.0,43877900.97620515,0.7506704422625923,0.6033326555512823,122.65703998943286,-0.1512738365616873,-0.020982308454197393
0.0,-30.0,30.0,-30.0,0.0,0.0,43877901.16947994,0.7506704422625923,0.6033326555512895,122.65703998943286,0.042000951793675516,-0.1770678804353787
0.0,-30.0,30.0,-30.0,0.0,30.0,43877900.466812976,0.7506704422625932,0.603332655551285,122.65703998943286,-0.10551229797751956,-0.03364364611715978
0.0,-30.0,30.0,-30.0,30.0,-30.0,43877901.0743513,0.7506704422625923,0.6033326555512868,122.65703998943286,-0.05312768184433254,0.19697038389276125
0.0,-30.0,30.0,-30.0,30.0,0.0,43877901.27166488,0.7506704422625923,0.6033326555512797,122.65703998943286,0.14418589458904718,-0.00443220799359465
0.0,-30.0,30.0,-30.0,30.0,30.0,43877901.41149467,0.7506704422625923,0.6033326555512797,122.65703998943286,0.2996407300079943,-0.19833773291119186
0.0,-30.0,30.0,0.0,-30.0,-30.0,43877903.34295175,-0.2426282927588679,-13.660276971852365,0.13158610910572932,0.006459264604937093,-0.2034434868948582
0.0,-30.0,30.0,0.0,-30.0,0.0,43877903.22088897,-0.2426282927588667,-13.660276971852365,0.1315861091057302,-0.13122847916738126,-0.050193746577762446
0.0,-30.0,30.0,0.0,-30.0,30.0,43877903.01992587,-0.2426282927588667,-13.660276971852365,0.13158610910572932,-0.3321915798960006,0.1879585705250385
0.0,-30.0,30.0,0.0,0.0,-30.0,43877903.20084361,-0.2426282927588667,-13.660276971852365,0.13158610910572932,-0.15127383656168733,-0.020982308454197393
0.0,-30.0,30.0,0.0,0.0,0.0,43877903.37849335,-0.24262829275886671,-13.660276971852365,-4.138230782609366,-2.934537305372078,5.392998553774972
0.0,-30.0,30.0,0.0,0.0,30.0,43877902.69145144,-0.24262829275886622,-13.660276971852364,0.13158610910572932,-0.10551229797751956,-0.03364364611715981
0.0,-30.0,30.0,0.0,30.0,-30.0,43877903.28336472,-0.2426282927588667,-13.660276971852365,0.13158610910572932,-0.05312768184433253,0.1969703838927612
0.0,-30.0,30.0,0.0,30.0,0.0,43877903.48067838,-0.24262829275886777,-13.660276971852365,0.1315861091057302,0.14418589458904718,-0.004432207993594637
0.0,-30.0,30.0,0.0,30.0,30.0,43877903.636133134,-0.2426282927588667,-13.660276971852365,0.13158610910572932,0.2996407300079943,-0.19833773291119183
0.0,-30.0,30.0,30.0,-30.0,-30.0,43877901.01808274,-0.24262829275886702,-13.660276971852365,-128.05923623021496,0.0064592646049371,-0.2034434868948582
0.0,-30.0,30.0,30.0,-30.0,0.0,43877900.88039499,-0.2426282927588667,-13.660276971852365,-128.05923623021496,-0.13122847916738126,-0.05019374657776244
0.0,-30.0,30.0,30.0,-30.0,30.0,43877900.67943189,-0.2426282927588667,-13.660276971852365,-128.05923623021496,-0.3321915798960006,0.18795857052503848
0.0,-30.0,30.0,30.0,0.0,-30.0,43877900.86034963,-0.2426282927588667,-13.660276971852356,-131.1408594736307,-2.4397717769979743,-0.02098230845419738
0.0,-30.0,30.0,30.0,0.0,0.0,43877901.03799941,-0.2426282927588667,-13.660276971852365,-133.96052852114678,-10.382091692318102,24.49103113478363
0.0,-30.0,30.0,30.0,0.0,30.0,43877900.35095746,-0.24262829275886622,-13.660276971852365,-131.1408594736307,-2.3940102384138067,-0.033643646117159795
0.0,-30.0,30.0,30.0,30.0,-30.0,43877900.95849579,-0.2426282927588667,-13.660276971852365,-123.36231420315225,0.5814200436561004,0.19697038389276125
0.0,-30.0,30.0,30.0,30.0,0.0,43877901.155809365,-0.2426282927588667,-13.660276971852365,-123.36231420315225,0.7787336200894802,-0.004432207993594631
0.0,-30.0,30.0,30.0,30.0,30.0,43877901.29563924,-0.2426282927588667,-13.66027697185236,-123.36231420315225,0.9341884555084272,-0.19833773291119186
0.0,0.0,-30.0,-30.0,-30.0,-30.0,43877901.07441244,1.8877840869616858,-0.060667942454521784,129.48239504522226,0.006459264604937096,-0.20344348689485817
0.0,0.0,-30.0,-30.0,-30.0,0.0,43877900.952349745,1.8877840869616858,-0.06066794245452174,129.48239504522226,-0.13122847916738123,-0.05019374657776246
0.0,0.0,-30.0,-30.0,-30.0,30.0,43877900.75138664,1.8877840869616858,-0.06066794245452177,129.48239504522226,-0.3321915798960006,0.1879585705250385
0.0,0.0,-30.0,-30.0,0.0,-30.0,43877900.93230438,1.8877840869616858,-0.060667942454521756,129.48239504522226,-0.15127383656168736,-0.02098230845419738
0.0,0.0,-30.0,-30.0,0.0,0.0,43877901.12557917,1.8877840869616858,-0.06066794245452175,129.48239504522226,0.04200095179367552,-0.1770678804353787
0.0,0.0,-30.0,-30.0,0.0,30.0,43877901.50196963,1.8877840869616858,-0.060667942454521756,129.48239504522226,-0.10551229797751956,-0.03364364611715978
0.0,0.0,-30.0,-30.0,30.0,-30.0,43877901.569979265,1.8877840869616866,-0.060667942454521756,129.48239504522226,-0.05312768184433254,0.19697038389276122
0.0,0.0,-30.0,-30.0,30.0,0.0,43877901.21213907,1.8877840869616858,-0.06066794245452176,129.48239504522232,0.1441858945890472,-0.0044322079935946454
0.0,0.0,-30.0,-30.0,30.0,30.0,43877901.92274762,1.8877840869616866,-0.06066794245452176,129.48239504522226,0.29964073000799424,-0.19833773291119183
0.0,0.0,-30.0,0.0,-30.0,-30.0,43877903.299050905,-0.14018791370304745,-0.06066794245452176,0.13158610910572932,0.006459264604937093,-0.20344348689485817
0.0,0.0,-30.0,0.0,-30.0,0.0,43877903.16136316,-0.14018791370304745,-0.060667942454521784,0.13158610910572932,-0.13122847916738126,-0.05019374657776246
0.0,0.0,-30.0,0.0,-30.0,30.0,43877902.976025105,-0.14018791370304742,-0.060667942454521756,0.13158610910572932,-0.3321915798960006,0.18795857052503856
0.0,0.0,-30.0,0.0,0.0,-30.0,43877903.156942844,-0.14018791370304742,-0.060667942454521735,0.13158610910572932,-0.1512738365616873,-0.020982308454197407
0.0,0.0,-30.0,0.0,0.0,0.0,43877903.33459259,-0.14018791370304745,-0.06066794245452176,-4.138230782609368,-2.9345373053720767,5.392998553774968
0.0,0.0,-30.0,0.0,0.0,30.0,43877903.74223313,-0.14018791370304745,-0.06066794245452176,0.13158610910572932,-0.10551229797751957,-0.03364364611715977
0.0,0.0,-30.0,0.0,30.0,-30.0,43877903.79461767,-0.14018791370304745,-0.06066794245452177,0.1315861091057302,-0.053127681844332544,0.19697038389276122
0.0,0.0,-30.0,0.0,30.0,0.0,43877903.436777614,-0.14018791370304745,-0.06066794245452177,0.13158610910572932,0.1441858945890472,-0.004432207993594641
0.0,0.0,-30.0,0.0,30.0,30.0,43877904.14738608,-0.14018791370304745,-0.06066794245452177,0.13158610910572932,0.29964073000799424,-0.19833773291119183
0.0,0.0,-30.0,30.0,-30.0,-30.0,43877900.97418197,-0.14018791370304745,-0.060667942454521756,-128.05923623021496,0.006459264604937096,-0.2034434868948582
0.0,0.0,-30.0,30.0,-30.0,0.0,43877900.83649422,-0.14018791370304745,-0.06066794245452177,-128.05923623021496,-0.13122847916738126,-0.05019374657776245
0.0,0.0,-30.0,30.0,-30.0,30.0,43877900.63553113,-0.14018791370304745,-0.060667942454521784,-128.05923623021496,-0.33219157989600057,0.1879585705250385
0.0,0.0,-30.0,30.0,0.0,-30.0,43877900.81644887,-0.14018791370304742,-0.06066794245452174,-131.1408594736307,-2.4397717769979743,-0.020982308454197393
0.0,0.0,-30.0,30.0,0.0,0.0,43877901.009723656,-0.14018791370304745,-0.06066794245452177,-133.96052852114678,-10.382091692318102,24.49103113478363
0.0,0.0,-30.0,30.0,0.0,30.0,43877901.38611411,-0.14018791370304742,-0.06066794245452174,-131.1408594736307,-2.3940102384138067,-0.03364364611715978
0.0,0.0,-30.0,30.0,30.0,-30.0,43877901.43849873,-0.14018791370304745,-0.06066794245452177,-123.36231420315225,0.5814200436561006,0.19697038389276125
0.0,0.0,-30.0,30.0,30.0,0.0,43877901.096283555,-0.14018791370304745,-0.060667942454521756,-123.36231420315225,0.7787336200894807,-0.004432207993594648
0.0,0.0,-30.0,30.0,30.0,30.0,43877901.80689218,-0.14018791370304745,-0.06066794245452177,-123.36231420315225,0.9341884555084272,-0.19833773291119183
0.0,0.0,0.0,-30.0,-30.0,-30.0,43877900.991750576,11.440765955250678,-6.602498994955685,132.75938639737765,0.006459264604937093,-0.2034434868948582
0.0,0.0,0.0,-30.0,-30.0,0.0,43877900.85406283,11.440765955250674,-6.60249899495568,132.75938639737763,-0.13122847916738126,-0.05019374657776243
0.0,0.0,0.0,-30.0,-30.0,30.0,43877900.65309973,11.440765955250678,-6.602498994955683,132.75938639737765,-0.3321915798960007,0.1879585705250385
0.0,0.0,0.0,-30.0,0.0,-30.0,43877900.83401747,11.440765955250678,-6.602498994955682,132.75938639737765,-0.15127383656168733,-0.020982308454197365
0.0,0.0,0.0,-30.0,0.0,0.0,43877900.47213855,11.440765955250674,-6.602498994955683,132.75938639737763,0.042000951793675516,-0.1770678804353787
0.0,0.0,0.0,-30.0,0.0,30.0,43877901.403682716,11.440765955250678,-6.602498994955682,132.75938639737765,-0.10551229797751957,-0.03364364611715977
0.0,0.0,0.0,-30.0,30.0,-30.0,43877901.45606733,11.440765955250674,-6.602498994955686,132.75938639737763,-0.053127681844332544,0.19697038389276125
0.0,0.0,0.0,-30.0,30.0,0.0,43877901.1294772,11.440765955250678,-6.602498994955683,132.75938639737765,0.14418589458904718,-0.004432207993594643
0.0,0.0,0.0,-30.0,30.0,30.0,43877901.82446078,11.440765955250678,-6.602498994955682,132.75938639737765,0.2996407300079943,-0.19833773291119186
0.0,0.0,0.0,0.0,-30.0,-30.0,43877903.20076399,3.2514660901525794,-3.9589280518955796,4.859345520366631,0.006459264604937093,-0.2034434868948582
0.0,0.0,0.0,0.0,-30.0,0.0,43877903.078701295,3.2514660901525794,-3.9589280518955805,4.85934552036663,-0.13122847916738126,-0.05019374657776242
0.0,0.0,0.0,0.0,-30.0,30.0,43877902.87773819,3.251466090152581,-3.958928051895582,4.859345520366629,-0.3321915798960006,0.1879585705250385
0.0,0.0,0.0,0.0,0.0,-30.0,43877903.04303089,3.2514660901525803,-3.9589280518955814,4.859345520366631,-0.15127383656168736,-0.020982308454197393
0.0,0.0,0.0,0.0,0.0,0.0,43877902.69677705,3.2514660901525803,-3.9589280518955814,0.5895286286515332,-2.9345373053720767,5.392998553774968
0.0,0.0,0.0,0.0,0.0,30.0,43877903.62832118,3.2514660901525785,-3.958928051895581,4.859345520366628,-0.10551229797751957,-0.03364364611715977
0.0,0.0,0.0,0.0,30.0,-30.0,43877903.69633083,3.251466090152581,-3.958928051895581,4.85934552036663,-0.05312768184433253,0.19697038389276122
0.0,0.0,0.0,0.0,30.0,0.0,43877903.33849062,3.2514660901525803,-3.9589280518955805,4.85934552036663,0.1441858945890472,-0.0044322079935946454
0.0,0.0,0.0,0.0,30.0,30.0,43877904.04909917,3.251466090152581,-3.9589280518955805,4.859345520366629,0.2996407300079943,-0.19833773291119186
0.0,0.0,0.0,30.0,-30.0,-30.0,43877900.87589506,-0.04190100157470151,0.02768322774872691,-128.05923623021496,0.006459264604937093,-0.20344348689485817
0.0,0.0,0.0,30.0,-30.0,0.0,43877900.73820731,-0.0419010015747015,0.02768322774872692,-128.05923623021496,-0.13122847916738123,-0.05019374657776246
0.0,0.0,0.0,30.0,-30.0,30.0,43877900.537244216,-0.041901001574701495,0.02768322774872692,-128.05923623021496,-0.3321915798960006,0.18795857052503848
0.0,0.0,0.0,30.0,0.0,-30.0,43877900.718161955,-0.04190100157470151,0.02768322774872692,-131.1408594736307,-2.4397717769979743,-0.020982308454197365
0.0,0.0,0.0,30.0,0.0,0.0,43877900.35628303,-0.0419010015747015,0.027683227748726905,-133.96052852114678,-10.382091692318102,24.49103113478363
0.0,0.0,0.0,30.0,0.0,30.0,43877901.2878272,-0.04190100157470151,0.02768322774872691,-131.1408594736307,-2.3940102384138067,-0.03364364611715978
0.0,0.0,0.0,30.0,30.0,-30.0,43877901.340211816,-0.0419010015747015,0.027683227748726905,-123.36231420315225,0.5814200436561004,0.19697038389276122
0.0,0.0,0.0,30.0,30.0,0.0,43877901.01362169,-0.04190100157470151,0.02768322774872692,-123.36231420315225,0.7787336200894802,-0.0044322079935946515
0.0,0.0,0.0,30.0,30.0,30.0,43877901.70860519,-0.041901001574701516,0.0276832277487269,-123.36231420315225,0.9341884555084278,-0.19833773291119183
0.0,0.0,30.0,-30.0,-30.0,-30.0,43877901.5974005,12.264537766128086,1.757551507116048,147.37917142446523,0.0064592646049370945,-0.20344348689485817
0.0,0.0,30.0,-30.0,-30.0,0.0,43877901.45971275,12.264537766128086,1.7575515071160481,147.37917142446523,-0.13122847916738126,-0.050193746577762446
0.0,0.0,30.0,-30.0,-30.0,30.0,43877901.25874966,12.264537766128086,1.7575515071160481,147.37917142446523,-0.3321915798960006,0.18795857052503853
0.0,0.0,30.0,-30.0,0.0,-30.0,43877901.439667396,12.264537766128086,1.7575515071160481,147.37917142446523,-0.1512738365616873,-0.020982308454197393
0.0,0.0,30.0,-30.0,0.0,0.0,43877901.632942185,12.264537766128086,1.7575515071160464,147.37917142446523,0.04200095179367552,-0.17706788043537872
0.0,0.0,30.0,-30.0,0.0,30.0,43877902.00933264,12.264537766128086,1.757551507116049,147.37917142446523,-0.10551229797751957,-0.03364364611715975
0.0,0.0,30.0,-30.0,30.0,-30.0,43877901.53781355,12.264537766128086,1.7575515071160497,147.37917142446523,-0.05312768184433253,0.19697038389276125
0.0,0.0,30.0,-30.0,30.0,0.0,43877901.73512713,12.264537766128086,1.757551507116046,147.37917142446523,0.1441858945890472,-0.004432207993594648
0.0,0.0,30.0,-30.0,30.0,30.0,43877901.874957,12.264537766128086,1.7575515071160477,147.37917142446528,0.29964073000799424,-0.19833773291119186
0.0,0.0,30.0,0.0,-30.0,-30.0,43877903.806414,3.971725264710681,-5.18790839355559,0.13158610910572932,0.006459264604937086,-0.2034434868948582
0.0,0.0,30.0,0.0,-30.0,0.0,43877903.68435121,3.971725264710681,-5.187908393555588,0.1315861091057302,-0.13122847916738126,-0.050193746577762474
0.0,0.0,30.0,0.0,-30.0,30.0,43877903.48338812,3.971725264710681,-5.187908393555588,0.13158610910572932,-0.3321915798960006,0.18795857052503848
0.0,0.0,30.0,0.0,0.0,-30.0,43877903.66430586,3.971725264710681,-5.187908393555591,0.13158610910572932,-0.1512738365616873,-0.02098230845419742
0.0,0.0,30.0,0.0,0.0,0.0,43877903.8419556,3.971725264710681,-5.187908393555588,-4.138230782609367,-2.9345373053720785,5.392998553774972
0.0,0.0,30.0,0.0,0.0,30.0,43877904.233971104,3.971725264710681,-5.18790839355559,0.13158610910572932,-0.10551229797751957,-0.03364364611715977
0.0,0.0,30.0,0.0,30.0,-30.0,43877903.762452014,3.971725264710681,-5.187908393555588,0.13158610910572932,-0.05312768184433253,0.19697038389276122
0.0,0.0,30.0,0.0,30.0,0.0,43877903.94414063,3.971725264710681,-5.187908393555588,0.1315861091057302,0.1441858945890472,-0.004432207993594649
0.0,0.0,30.0,0.0,30.0,30.0,43877904.099595465,3.971725264710681,-5.187908393555587,0.13158610910572932,0.29964073000799424,-0.19833773291119183
0.0,0.0,30.0,30.0,-30.0,-30.0,43877901.48154498,3.971725264710681,-5.187908393555588,-128.05923623021496,0.006459264604937099,-0.2034434868948582
0.0,0.0,30.0,30.0,-30.0,0.0,43877901.343857236,3.971725264710681,-5.187908393555587,-128.05923623021496,-0.13122847916738123,-0.05019374657776247
0.0,0.0,30.0,30.0,-30.0,30.0,43877901.142894134,3.971725264710681,-5.187908393555588,-128.05923623021496,-0.3321915798960006,0.1879585705250385
0.0,0.0,30.0,30.0,0.0,-30.0,43877901.32381188,3.971725264710681,-5.187908393555588,-131.1408594736307,-2.4397717769979743,-0.02098230845419738
0.0,0.0,30.0,30.0,0.0,0.0,43877901.51708667,3.971725264710681,-5.1879083935555865,-133.96052852114678,-10.382091692318102,24.49103113478363
0.0,0.0,30.0,30.0,0.0,30.0,43877901.89347713,3.971725264710681,-5.187908393555588,-131.1408594736307,-2.3940102384138067,-0.03364364611715978
0.0,0.0,30.0,30.0,30.0,-30.0,43877901.42195804,3.971725264710681,-5.187908393555588,-123.36231420315225,0.5814200436561006,0.19697038389276125
0.0,0.0,30.0,30.0,30.0,0.0,43877901.61927161,3.971725264710681,-5.187908393555586,-123.36231420315225,0.7787336200894802,-0.004432207993594645
0.0,0.0,30.0,30.0,30.0,30.0,43877901.759101406,3.971725264710681,-5.18790839355559,-123.36231420315225,0.9341884555084273,-0.1983377329111919
0.0,30.0,-30.0,-30.0,-30.0,-30.0,43877900.861782156,0.0880674187521716,0.027543674645493336,126.63765355822416,0.006459264604937101,-0.20344348689485817
0.0,30.0,-30.0,-30.0,-30.0,0.0,43877900.72409441,0.0880674187521716,0.02754367464549335,126.63765355822416,-0.13122847916738123,-0.05019374657776248
0.0,30.0,-30.0,-30.0,-30.0,30.0,43877900.50750635,0.0880674187521716,0.027543674645493347,126.63765355822416,-0.3321915798960007,0.18795857052503856
0.0,30.0,-30.0,-30.0,0.0,-30.0,43877900.70404905,0.08806741875217161,0.027543674645493343,126.63765355822416,-0.15127383656168733,-0.02098230845419738
0.0,30.0,-30.0,-30.0,0.0,0.0,43877900.34217013,0.0880674187521716,0.027543674645493343,126.63765355822416,0.04200095179367552,-0.1770678804353787
0.0,30.0,-30.0,-30.0,0.0,30.0,43877901.2737143,0.08806741875217161,0.027543674645493343,126.63765355822416,-0.10551229797751956,-0.03364364611715977
0.0,30.0,-30.0,-30.0,30.0,-30.0,43877901.32609891,0.08806741875217161,0.027543674645493336,126.63765355822416,-0.05312768184433254,0.19697038389276128
0.0,30.0,-30.0,-30.0,30.0,0.0,43877900.99950878,0.08806741875217161,0.027543674645493357,126.63765355822416,0.1441858945890472,-0.004432207993594655
0.0,30.0,-30.0,-30.0,30.0,30.0,43877900.59980991,0.08806741875217158,0.027543674645493336,126.63765355822416,0.2996407300079943,-0.1983377329111918
0.0,30.0,-30.0,0.0,-30.0,-30.0,43877903.08642062,0.0880674187521716,0.027543674645493364,0.13158610910572932,0.006459264604937093,-0.2034434868948582
0.0,30.0,-30.0,0.0,-30.0,0.0,43877902.948732875,0.0880674187521716,0.02754367464549333,0.13158610910572932,-0.13122847916738126,-0.05019374657776246
0.0,30.0,-30.0,0.0,-30.0,30.0,43877902.74776977,0.0880674187521716,0.027543674645493336,0.13158610910572932,-0.3321915798960006,0.18795857052503853
0.0,30.0,-30.0,0.0,0.0,-30.0,43877902.92868751,0.08806741875217158,0.02754367464549335,0.13158610910572932,-0.15127383656168733,-0.020982308454197393
0.0,30.0,-30.0,0.0,0.0,0.0,43877902.56680859,0.08806741875217158,0.027543674645493323,-4.1382307826093685,-2.9345373053720807,5.392998553774972
0.0,30.0,-30.0,0.0,0.0,30.0,43877903.49835276,0.08806741875217161,0.02754367464549334,0.13158610910572932,-0.10551229797751958,-0.03364364611715977
0.0,30.0,-30.0,0.0,30.0,-30.0,43877903.56636234,0.08806741875217158,0.027543674645493343,0.1315861091057311,-0.05312768184433253,0.19697038389276125
0.0,30.0,-30.0,0.0,30.0,0.0,43877903.20852228,0.08806741875217161,0.027543674645493336,0.13158610910572932,0.14418589458904718,-0.004432207993594627
0.0,30.0,-30.0,0.0,30.0,30.0,43877902.82444833,0.08806741875217158,0.02754367464549333,0.13158610910572932,0.2996407300079943,-0.19833773291119186
0.0,30.0,-30.0,30.0,-30.0,-30.0,43877900.74592663,0.08806741875217161,0.027543674645493343,-128.05923623021496,0.00645926460493709,-0.2034434868948582
0.0,30.0,-30.0,30.0,-30.0,0.0,43877900.60823889,0.0880674187521716,0.02754367464549335,-128.05923623021496,-0.13122847916738126,-0.05019374657776245
0.0,30.0,-30.0,30.0,-30.0,30.0,43877900.39165075,0.0880674187521716,0.027543674645493357,-128.05923623021496,-0.3321915798960006,0.1879585705250385
0.0,30.0,-30.0,30.0,0.0,-30.0,43877900.588193536,0.0880674187521716,0.02754367464549333,-131.1408594736307,-2.4397717769979743,-0.02098230845419738
0.0,30.0,-30.0,30.0,0.0,0.0,43877900.22631461,0.08806741875217158,0.027543674645493343,-133.96052852114678,-10.382091692318104,24.49103113478363
0.0,30.0,-30.0,30.0,0.0,30.0,43877901.15785878,0.0880674187521716,0.027543674645493364,-131.1408594736307,-2.3940102384138067,-0.03364364611715977
0.0,30.0,-30.0,30.0,30.0,-30.0,43877901.2102434,0.0880674187521716,0.027543674645493343,-123.36231420315225,0.5814200436561004,0.19697038389276128
0.0,30.0,-30.0,30.0,30.0,0.0,43877900.88365327,0.0880674187521716,0.027543674645493357,-123.36231420315225,0.7787336200894802,-0.004432207993594638
0.0,30.0,-30.0,30.0,30.0,30.0,43877900.48395439,0.08806741875217158,0.027543674645493336,-123.36231420315225,0.9341884555084273,-0.19833773291119186
0.0,30.0,0.0,-30.0,-30.0,-30.0,43877900.81872448,0.13112509209124024,0.0808161961161264,126.63765355822416,0.006459264604937098,-0.2034434868948582
0.0,30.0,0.0,-30.0,-30.0,0.0,43877900.68103673,0.1311250920912402,0.0808161961161264,126.63765355822416,-0.13122847916738126,-0.05019374657776245
0.0,30.0,0.0,-30.0,-30.0,30.0,43877900.464448676,0.13112509209124024,0.0808161961161264,126.63765355822416,-0.3321915798960006,0.1879585705250385
0.0,30.0,0.0,-30.0,0.0,-30.0,43877900.66099138,0.1311250920912402,0.08081619611612638,126.63765355822416,-0.1512738365616873,-0.020982308454197365
0.0,30.0,0.0,-30.0,0.0,0.0,43877900.85426617,0.1311250920912402,0.0808161961161264,126.63765355822416,0.042000951793675516,-0.1770678804353787
0.0,30.0,0.0,-30.0,0.0,30.0,43877901.230656624,0.13112509209124024,0.08081619611612641,126.63765355822416,-0.10551229797751957,-0.03364364611715977
0.0,30.0,0.0,-30.0,30.0,-30.0,43877900.75913753,0.13112509209124024,0.0808161961161264,126.63765355822416,-0.05312768184433253,0.19697038389276125
0.0,30.0,0.0,-30.0,30.0,0.0,43877900.95645111,0.13112509209124024,0.0808161961161264,126.63765355822416,0.1441858945890472,-0.004432207993594648
0.0,30.0,0.0,-30.0,30.0,30.0,43877901.11190595,0.1311250920912402,0.08081619611612638,126.63765355822416,0.2996407300079943,-0.19833773291119183
0.0,30.0,0.0,0.0,-30.0,-30.0,43877903.0277379,0.1311250920912402,0.08081619611612637,0.1315861091057311,0.0064592646049371,-0.2034434868948582
0.0,30.0,0.0,0.0,-30.0,0.0,43877902.905675195,0.1311250920912402,0.08081619611612638,0.1315861091057302,-0.13122847916738123,-0.050193746577762446
0.0,30.0,0.0,0.0,-30.0,30.0,43877902.7047121,0.1311250920912402,0.0808161961161264,0.13158610910572932,-0.3321915798960007,0.18795857052503853
0.0,30.0,0.0,0.0,0.0,-30.0,43877902.88562984,0.13112509209124024,0.0808161961161264,0.1315861091057302,-0.15127383656168733,-0.020982308454197365
0.0,30.0,0.0,0.0,0.0,0.0,43877903.07890463,0.13112509209124018,0.0808161961161264,-4.138230782609367,-2.9345373053720785,5.392998553774972
0.0,30.0,0.0,0.0,0.0,30.0,43877903.455295086,0.13112509209124024,0.0808161961161264,0.13158610910572932,-0.10551229797751956,-0.033643646117159795
0.0,30.0,0.0,0.0,30.0,-30.0,43877902.983775996,0.1311250920912402,0.0808161961161264,0.1315861091057302,-0.05312768184433254,0.19697038389276122
0.0,30.0,0.0,0.0,30.0,0.0,43877903.16546453,0.13112509209124024,0.0808161961161264,0.1315861091057302,0.1441858945890472,-0.0044322079935946584
0.0,30.0,0.0,0.0,30.0,30.0,43877903.320919365,0.1311250920912402,0.08081619611612638,0.13158610910572932,0.2996407300079943,-0.19833773291119183
0.0,30.0,0.0,30.0,-30.0,-30.0,43877900.70286896,0.13112509209124024,0.08081619611612641,-128.05923623021496,0.006459264604937093,-0.20344348689485817
0.0,30.0,0.0,30.0,-30.0,0.0,43877900.56518122,0.1311250920912402,0.0808161961161264,-128.05923623021496,-0.13122847916738126,-0.050193746577762446
0.0,30.0,0.0,30.0,-30.0,30.0,43877900.34859315,0.13112509209124024,0.0808161961161264,-128.05923623021496,-0.3321915798960006,0.1879585705250385
0.0,30.0,0.0,30.0,0.0,-30.0,43877900.54513586,0.13112509209124024,0.08081619611612641,-131.1408594736307,-2.4397717769979743,-0.02098230845419738
0.0,30.0,0.0,30.0,0.0,0.0,43877900.73841065,0.13112509209124024,0.0808161961161264,-133.96052852114678,-10.382091692318102,24.49103113478363
0.0,30.0,0.0,30.0,0.0,30.0,43877901.11480111,0.13112509209124024,0.0808161961161264,-131.1408594736307,-2.3940102384138067,-0.03364364611715977
0.0,30.0,0.0,30.0,30.0,-30.0,43877900.64328202,0.13112509209124024,0.0808161961161264,-123.36231420315225,0.5814200436561006,0.19697038389276122
0.0,30.0,0.0,30.0,30.0,0.0,43877900.840595596,0.1311250920912402,0.0808161961161264,-123.36231420315225,0.7787336200894802,-0.0044322079935946584
0.0,30.0,0.0,30.0,30.0,30.0,43877900.99605043,0.1311250920912402,0.0808161961161264,-123.36231420315225,0.9341884555084272,-0.19833773291119183
0.0,30.0,30.0,-30.0,-30.0,-30.0,43877900.701107875,0.4389719617645637,6.448609437182827,128.2329233323422,0.006459264604937102,-0.20344348689485817
0.0,30.0,30.0,-30.0,-30.0,0.0,43877900.56342013,0.4389719617645637,6.448609437182829,128.2329233323422,-0.13122847916738123,-0.05019374657776245
0.0,30.0,30.0,-30.0,-30.0,30.0,43877900.36245703,0.4389719617645637,6.448609437182828,128.2329233323422,-0.3321915798960007,0.18795857052503856
0.0,30.0,30.0,-30.0,0.0,-30.0,43877900.54337478,0.4389719617645637,6.448609437182827,128.2329233323422,-0.15127383656168733,-0.020982308454197393
0.0,30.0,30.0,-30.0,0.0,0.0,43877900.736649565,0.4389719617645645,6.44860943718283,128.2329233323422,0.042000951793675516,-0.17706788043537872
0.0,30.0,30.0,-30.0,0.0,30.0,43877900.0339826,0.4389719617645645,6.448609437182829,128.2329233323422,-0.10551229797751956,-0.03364364611715978
0.0,30.0,30.0,-30.0,30.0,-30.0,43877900.641520925,0.4389719617645645,6.448609437182829,128.2329233323422,-0.05312768184433254,0.19697038389276125
0.0,30.0,30.0,-30.0,30.0,0.0,43877900.8388345,0.4389719617645637,6.448609437182827,128.2329233323422,0.1441858945890472,-0.0044322079935946515
0.0,30.0,30.0,-30.0,30.0,30.0,43877900.99428934,0.4389719617645636,6.448609437182836,128.2329233323422,0.2996407300079943,-0.19833773291119186
0.0,30.0,30.0,0.0,-30.0,-30.0,43877902.92574634,0.2753973907481936,6.995750967197508,0.13158610910572932,0.006459264604937093,-0.2034434868948582
0.0,30.0,30.0,0.0,-30.0,0.0,43877902.788058594,0.2753973907481935,6.995750967197524,0.1315861091057302,-0.13122847916738123,-0.05019374657776247
0.0,30.0,30.0,0.0,-30.0,30.0,43877902.58709549,0.2753973907481936,6.995750967197509,0.13158610910572932,-0.3321915798960007,0.18795857052503853
0.0,30.0,30.0,0.0,0.0,-30.0,43877902.76801324,0.2753973907481936,6.9957509671975115,0.13158610910572932,-0.15127383656168733,-0.020982308454197365
0.0,30.0,30.0,0.0,0.0,0.0,43877902.94566306,0.27539739074819336,6.995750967197513,-4.138230782609367,-2.9345373053720767,5.392998553774969
0.0,30.0,30.0,0.0,0.0,30.0,43877902.258621074,0.2753973907481942,6.995750967197513,0.13158610910572932,-0.10551229797751957,-0.03364364611715978
0.0,30.0,30.0,0.0,30.0,-30.0,43877902.86615939,0.27539739074819336,6.9957509671975115,0.1315861091057302,-0.053127681844332544,0.19697038389276122
0.0,30.0,30.0,0.0,30.0,0.0,43877903.04784792,0.2753973907481936,6.995750967197513,0.1315861091057311,0.14418589458904724,-0.0044322079935946515
0.0,30.0,30.0,0.0,30.0,30.0,43877903.203302756,0.27539739074819314,6.9957509671975115,0.13158610910572932,0.2996407300079943,-0.19833773291119186
0.0,30.0,30.0,30.0,-30.0,-30.0,43877900.58525236,0.2753973907481936,6.995750967197513,-128.05923623021496,0.006459264604937095,-0.2034434868948582
0.0,30.0,30.0,30.0,-30.0,0.0,43877900.44756462,0.2753973907481936,6.9957509671975115,-128.05923623021496,-0.13122847916738126,-0.05019374657776247
0.0,30.0,30.0,30.0,-30.0,30.0,43877900.246601515,0.2753973907481936,6.9957509671975115,-128.05923623021496,-0.3321915798960006,0.18795857052503853
0.0,30.0,30.0,30.0,0.0,-30.0,43877900.427519254,0.2753973907481936,6.995750967197523,-131.1408594736307,-2.4397717769979743,-0.02098230845419738
0.0,30.0,30.0,30.0,0.0,0.0,43877900.62079404,0.27539739074819336,6.9957509671975115,-133.96052852114678,-10.382091692318102,24.49103113478363
0.0,30.0,30.0,30.0,0.0,30.0,43877899.91812708,0.27539739074819425,6.995750967197514,-131.1408594736307,-2.3940102384138067,-0.03364364611715977
0.0,30.0,30.0,30.0,30.0,-30.0,43877900.52566541,0.27539739074819336,6.995750967197513,-123.36231420315225,0.5814200436561006,0.19697038389276125
0.0,30.0,30.0,30.0,30.0,0.0,43877900.72297899,0.2753973907481937,6.995750967197525,-123.36231420315225,0.7787336200894802,-0.004432207993594617
0.0,30.0,30.0,30.0,30.0,30.0,43877900.87843382,0.27539739074819325,6.9957509671975115,-123.36231420315225,0.9341884555084273,-0.1983377329111919
30.0,-30.0,-30.0,-30.0,-30.0,-30.0,-2372500928837282.5,-0.42961330748661253,0.04639662582441227,25.00485252699461,-0.15127383656168733,-0.02098230845419738
30.0,-30.0,-30.0,-30.0,-30.0,0.0,-2372500928837282.5,-0.4296133074866126,0.04639662582441226,25.004852526994583,0.04200095179367552,-0.1770678804353787
30.0,-30.0,-30.0,-30.0,-30.0,30.0,-2372500928837282.5,-0.42961330748661253,0.04639662582441227,25.00485252699461,-0.10551229797751957,-0.03364364611715977
30.0,-30.0,-30.0,-30.0,0.0,-30.0,-2372500928837282.5,-0.42961330748661253,0.046396625824412285,25.004852526994604,-0.05312768184433253,0.19697038389276128
30.0,-30.0,-30.0,-30.0,0.0,0.0,-2372500928837282.5,-0.42961330748661253,0.0463966258244123,25.004852526994583,0.1441858945890472,-0.004432207993594645
30.0,-30.0,-30.0,-30.0,0.0,30.0,-2372500928837282.0,-0.42961330748661253,0.046396625824412244,25.00485252699461,0.2996407300079943,-0.19833773291119186
30.0,-30.0,-30.0,-30.0,30.0,-30.0,-2372500928837282.0,-0.4296133074866126,0.046396625824412244,25.00485252699461,0.13488379265437825,0.08174824305494231
30.0,-30.0,-30.0,-30.0,30.0,0.0,-2372500928837282.5,-0.4296133074866126,0.04639662582441227,25.00485252699461,0.0024808147937223136,0.17570053141694808
30.0,-30.0,-30.0,-30.0,30.0,30.0,-2372500928837281.0,-0.42961330748661253,0.04639662582441227,25.004852526994554,0.1979523320757341,-0.02754411962077573
30.0,-30.0,-30.0,0.0,-30.0,-30.0,-2372500928837262.0,0.09967660965239784,0.04639662582441227,-0.5629962601262388,-0.15127383656168733,-0.020982308454197365
30.0,-30.0,-30.0,0.0,-30.0,0.0,-2372500928837264.0,0.09967660965239784,0.04639662582441227,-0.5629962601262388,0.04200095179367552,-0.17706788043537872
30.0,-30.0,-30.0,0.0,-30.0,30.0,-2372500928837263.5,0.09967660965239783,0.04639662582441226,-0.5629962601262406,-0.10551229797751957,-0.03364364611715977
30.0,-30.0,-30.0,0.0,0.0,-30.0,-2372500928837264.0,0.09967660965239784,0.04639662582441226,-0.5629962601262388,-0.053127681844332544,0.19697038389276125
30.0,-30.0,-30.0,0.0,0.0,0.0,-2372500928837262.0,0.09967660965239782,0.04639662582441223,-4.832813151841285,-2.832352362577081,5.565634226217385
30.0,-30.0,-30.0,0.0,0.0,30.0,-2372500928837261.5,0.09967660965239783,0.04639662582441223,-0.5629962601262406,0.2996407300079943,-0.19833773291119183
30.0,-30.0,-30.0,0.0,30.0,-30.0,-2372500928837264.0,0.09967660965239784,0.04639662582441227,-0.5629962601262388,0.13488379265437822,0.08174824305494231
30.0,-30.0,-30.0,0.0,30.0,0.0,-2372500928837264.0,0.09967660965239784,0.04639662582441227,-0.5629962601262384,0.0024808147937223153,0.1757005314169481
30.0,-30.0,-30.0,0.0,30.0,30.0,-2372500928837262.5,0.09967660965239786,0.04639662582441226,-0.5629962601262406,0.1979523320757341,-0.027544119620775756
30.0,-30.0,-30.0,30.0,-30.0,-30.0,-2372500928837282.5,0.09967660965239784,0.04639662582441227,-29.85835437318751,-0.15127383656168733,-0.02098230845419738
30.0,-30.0,-30.0,30.0,-30.0,0.0,-2372500928837282.5,0.09967660965239784,0.04639662582441226,-29.858354373187538,0.04200095179367553,-0.1770678804353787
30.0,-30.0,-30.0,30.0,-30.0,30.0,-2372500928837282.5,0.09967660965239784,0.04639662582441227,-29.85835437318751,-0.10551229797751956,-0.03364364611715978
30.0,-30.0,-30.0,30.0,0.0,-30.0,-2372500928837282.5,0.09967660965239784,0.04639662582441227,-32.93997761660335,-2.341625622280676,0.19697038389276128
30.0,-30.0,-30.0,30.0,0.0,0.0,-2372500928837282.5,0.09967660965239786,0.04639662582441227,-35.75964666411945,-10.27990674952283,24.663666807225475
30.0,-30.0,-30.0,30.0,0.0,30.0,-2372500928837281.5,0.09967660965239783,0.04639662582441227,-32.939977616603386,-1.9888572104283493,-0.19833773291119186
30.0,-30.0,-30.0,30.0,30.0,-30.0,-2372500928837282.5,0.09967660965239783,0.04639662582441226,-25.161432346124823,0.769431518154813,0.0817482430549423
30.0,-30.0,-30.0,30.0,30.0,0.0,-2372500928837281.0,0.09967660965239784,0.046396625824412244,-25.161432346124815,0.6370285402941571,0.17570053141694808
30.0,-30.0,-30.0,30.0,30.0,30.0,-2372500928837282.5,0.09967660965239784,0.04639662582441223,-25.161432346124858,0.832500057576169,-0.02754411962077573
30.0,-30.0,0.0,-30.0,-30.0,-30.0,-2372500928837281.0,-0.5318292742728623,-0.04998053399724989,25.00485252699462,-0.1512738365616873,-0.020982308454197393
30.0,-30.0,0.0,-30.0,-30.0,0.0,-2372500928837282.0,-0.5318292742728623,-0.04998053399724988,25.00485252699461,0.042000951793675516,-0.1770678804353787
30.0,-30.0,0.0,-30.0,-30.0,30.0,-2372500928837282.5,-0.5318292742728623,-0.04998053399724988,25.004852526994625,-0.10551229797751956,-0.03364364611715978
30.0,-30.0,0.0,-30.0,0.0,-30.0,-2372500928837282.5,-0.5318292742728623,-0.04998053399724989,25.00485252699461,-0.05312768184433253,0.19697038389276122
30.0,-30.0,0.0,-30.0,0.0,0.0,-2372500928837282.0,-0.5318292742728623,-0.04998053399724988,25.00485252699462,0.1441858945890472,-0.004432207993594657
30.0,-30.0,0.0,-30.0,0.0,30.0,-2372500928837282.0,-0.5318292742728623,-0.049980533997249874,25.004852526994625,0.29964073000799424,-0.19833773291119183
30.0,-30.0,0.0,-30.0,30.0,-30.0,-2372500928837282.0,-0.5318292742728623,-0.049980533997249894,25.00485252699459,0.13488379265437822,0.08174824305494231
30.0,-30.0,0.0,-30.0,30.0,0.0,-2372500928837282.5,-0.5318292742728623,-0.049980533997249874,25.004852526994583,0.002480814793722313,0.17570053141694808
30.0,-30.0,0.0,-30.0,30.0,30.0,-2372500928837282.5,-0.5318292742728623,-0.04998053399724987,25.004852526994647,0.19795233207573407,-0.0275441196207757
30.0,-30.0,0.0,0.0,-30.0,-30.0,-2372500928837262.0,-0.0025393571338518696,-0.049980533997249894,-0.5629962601262384,-0.15127383656168733,-0.02098230845419738
30.0,-30.0,0.0,0.0,-30.0,0.0,-2372500928837262.0,-0.002539357133851873,-0.04998053399724989,-0.5629962601262388,0.04200095179367552,-0.17706788043537874
30.0,-30.0,0.0,0.0,-30.0,30.0,-2372500928837263.5,-0.002539357133851869,-0.04998053399724989,-0.5629962601262388,-0.10551229797751958,-0.03364364611715977
30.0,-30.0,0.0,0.0,0.0,-30.0,-2372500928837262.0,-0.002539357133851868,-0.04998053399724989,-0.5629962601262388,-0.05312768184433253,0.19697038389276122
30.0,-30.0,0.0,0.0,0.0,0.0,-2372500928837263.5,-0.002539357133851873,-0.04998053399724989,-4.832813151841284,-2.8323523625770823,5.565634226217379
30.0,-30.0,0.0,0.0,0.0,30.0,-2372500928837261.5,-0.00253935713385188,-0.0499805339972499,-0.5629962601262388,0.2996407300079943,-0.19833773291119186
30.0,-30.0,0.0,0.0,30.0,-30.0,-2372500928837263.5,-0.002539357133851873,-0.04998053399724989,-0.5629962601262388,0.13488379265437825,0.0817482430549423
30.0,-30.0,0.0,0.0,30.0,0.0,-2372500928837262.0,-0.002539357133851866,-0.04998053399724988,-0.5629962601262393,0.0024808147937223184,0.17570053141694808
30.0,-30.0,0.0,0.0,30.0,30.0,-2372500928837261.0,-0.00253935713385188,-0.04998053399724989,-0.5629962601262388,0.1979523320757341,-0.02754411962077573
30.0,-30.0,0.0,30.0,-30.0,-30.0,-2372500928837281.0,-0.0025393571338518696,-0.04998053399724988,-29.858354373187524,-0.15127383656168733,-0.02098230845419738
30.0,-30.0,0.0,30.0,-30.0,0.0,-2372500928837282.5,-0.002539357133851873,-0.04998053399724989,-29.858354373187524,0.04200095179367551,-0.1770678804353787
30.0,-30.0,0.0,30.0,-30.0,30.0,-2372500928837282.5,-0.0025393571338518687,-0.0499805339972499,-29.858354373187538,-0.10551229797751956,-0.03364364611715977
30.0,-30.0,0.0,30.0,0.0,-30.0,-2372500928837282.5,-0.0025393571338518713,-0.0499805339972499,-32.93997761660338,-2.341625622280676,0.19697038389276122
30.0,-30.0,0.0,30.0,0.0,0.0,-2372500928837282.5,-0.002539357133851866,-0.0499805339972499,-35.75964666411945,-10.27990674952283,24.663666807225482
30.0,-30.0,0.0,30.0,0.0,30.0,-2372500928837282.0,-0.002539357133851866,-0.04998053399724989,-32.93997761660338,-1.9888572104283493,-0.19833773291119183
30.0,-30.0,0.0,30.0,30.0,-30.0,-2372500928837282.5,-0.002539357133851866,-0.04998053399724989,-25.161432346124858,0.769431518154813,0.0817482430549423
30.0,-30.0,0.0,30.0,30.0,0.0,-2372500928837281.0,-0.0025393571338518696,-0.04998053399724988,-25.16143234612485,0.6370285402941571,0.17570053141694808
30.0,-30.0,0.0,30.0,30.0,30.0,-2372500928837280.0,-0.002539357133851866,-0.049980533997249874,-25.161432346124844,0.832500057576169,-0.027544119620775742
30.0,-30.0,30.0,-30.0,-30.0,-30.0,-2372500928837283.5,1.1392913073462005,2.44233552794068,24.941962175002683,-0.15127383656168733,-0.020982308454197393
30.0,-30.0,30.0,-30.0,-30.0,0.0,-2372500928837283.0,1.1392913073462005,2.4423355279406835,24.941962175002676,0.04200095179367552,-0.1770678804353787
30.0,-30.0,30.0,-30.0,-30.0,30.0,-2372500928837283.5,1.1392913073462014,2.44233552794068,24.941962175002626,-0.10551229797751956,-0.03364364611715977
30.0,-30.0,30.0,-30.0,0.0,-30.0,-2372500928837283.5,1.1392913073462005,2.4423355279406835,24.94196217500268,-0.05312768184433255,0.19697038389276125
30.0,-30.0,30.0,-30.0,0.0,0.0,-2372500928837283.5,1.1392913073461992,2.4423355279406835,24.941962175002683,0.1441858945890472,-0.0044322079935946454
30.0,-30.0,30.0,-30.0,0.0,30.0,-2372500928837283.0,1.1392913073462014,2.4423355279406818,24.94196217500267,0.2996407300079943,-0.19833773291119186
30.0,-30.0,30.0,-30.0,30.0,-30.0,-2372500928837283.0,1.1392913073462005,2.4423355279406835,24.941962175002686,0.13488379265437825,0.0817482430549423
30.0,-30.0,30.0,-30.0,30.0,0.0,-2372500928837284.0,1.1392913073462014,2.4423355279406764,24.94196217500267,0.002480814793722315,0.17570053141694808
30.0,-30.0,30.0,-30.0,30.0,30.0,-2372500928837281.5,1.1392913073462005,2.4423355279406853,24.94196217500267,0.1979523320757341,-0.027544119620775714
30.0,-30.0,30.0,0.0,-30.0,-30.0,-2372500928837263.0,0.1459925723247264,-11.821274099462967,-0.5629962601262393,-0.15127383656168733,-0.02098230845419735
30.0,-30.0,30.0,0.0,-30.0,0.0,-2372500928837264.5,0.1459925723247269,-11.82127409946297,-0.5629962601262388,0.04200095179367552,-0.1770678804353787
30.0,-30.0,30.0,0.0,-30.0,30.0,-2372500928837264.5,0.14599257232472662,-11.821274099462965,-0.5629962601262402,-0.10551229797751956,-0.03364364611715978
30.0,-30.0,30.0,0.0,0.0,-30.0,-2372500928837264.5,0.1459925723247269,-11.82127409946297,-0.5629962601262388,-0.053127681844332524,0.19697038389276122
30.0,-30.0,30.0,0.0,0.0,0.0,-2372500928837262.0,0.14599257232472657,-11.821274099462968,-4.832813151841284,-2.832352362577081,5.565634226217381
30.0,-30.0,30.0,0.0,0.0,30.0,-2372500928837265.5,0.14599257232472726,-11.821274099462968,-0.5629962601262402,0.29964073000799424,-0.19833773291119186
30.0,-30.0,30.0,0.0,30.0,-30.0,-2372500928837263.5,0.14599257232472662,-11.82127409946297,-0.5629962601262388,0.13488379265437825,0.0817482430549423
30.0,-30.0,30.0,0.0,30.0,0.0,-2372500928837265.0,0.14599257232472657,-11.82127409946297,-0.5629962601262388,0.0024808147937223114,0.17570053141694808
30.0,-30.0,30.0,0.0,30.0,30.0,-2372500928837264.5,0.14599257232472623,-11.821274099462965,-0.5629962601262402,0.1979523320757341,-0.02754411962077573
30.0,-30.0,30.0,30.0,-30.0,-30.0,-2372500928837283.5,0.1459925723247269,-11.82127409946297,-29.85835437318751,-0.15127383656168733,-0.02098230845419738
30.0,-30.0,30.0,30.0,-30.0,0.0,-2372500928837283.5,0.1459925723247269,-11.82127409946297,-29.858354373187524,0.04200095179367552,-0.17706788043537872
30.0,-30.0,30.0,30.0,-30.0,30.0,-2372500928837283.5,0.14599257232472707,-11.82127409946297,-29.858354373187524,-0.10551229797751957,-0.03364364611715978
30.0,-30.0,30.0,30.0,0.0,-30.0,-2372500928837283.5,0.14599257232472657,-11.821274099462968,-32.939977616603365,-2.3416256222806764,0.19697038389276125
30.0,-30.0,30.0,30.0,0.0,0.0,-2372500928837283.0,0.145992572324727,-11.821274099462967,-35.75964666411942,-10.27990674952283,24.663666807225482
30.0,-30.0,30.0,30.0,0.0,30.0,-2372500928837283.0,0.14599257232472657,-11.821274099462965,-32.93997761660337,-1.9888572104283497,-0.19833773291119183
30.0,-30.0,30.0,30.0,30.0,-30.0,-2372500928837283.5,0.14599257232472662,-11.821274099462965,-25.161432346124844,0.769431518154813,0.0817482430549423
30.0,-30.0,30.0,30.0,30.0,0.0,-2372500928837283.5,0.14599257232472657,-11.821274099462967,-25.161432346124847,0.6370285402941571,0.17570053141694808
30.0,-30.0,30.0,30.0,30.0,30.0,-2372500928837283.0,0.14599257232472657,-11.82127409946297,-25.161432346124844,0.8325000575761689,-0.027544119620775742
30.0,0.0,-30.0,-30.0,-30.0,-30.0,-2372500928837282.5,1.896656204021769,-0.046259910816106344,31.767317230792063,-0.15127383656168733,-0.02098230845419738
30.0,0.0,-30.0,-30.0,-30.0,0.0,-2372500928837282.5,1.896656204021769,-0.04625991081610634,31.767317230792074,0.042000951793675516,-0.1770678804353787
30.0,0.0,-30.0,-30.0,-30.0,30.0,-2372500928837282.5,1.896656204021769,-0.04625991081610636,31.767317230792074,-0.10551229797751956,-0.03364364611715978
30.0,0.0,-30.0,-30.0,0.0,-30.0,-2372500928837282.5,1.896656204021769,-0.04625991081610635,31.767317230792102,-0.05312768184433253,0.19697038389276125
30.0,0.0,-30.0,-30.0,0.0,0.0,-2372500928837282.0,1.896656204021769,-0.04625991081610636,31.767317230792074,0.1441858945890472,-0.004432207993594655
30.0,0.0,-30.0,-30.0,0.0,30.0,-2372500928837282.0,1.8966562040217685,-0.04625991081610636,31.767317230792074,0.2996407300079943,-0.19833773291119183
30.0,0.0,-30.0,-30.0,30.0,-30.0,-2372500928837282.0,1.896656204021769,-0.046259910816106344,31.767317230792095,0.13488379265437825,0.0817482430549423
30.0,0.0,-30.0,-30.0,30.0,0.0,-2372500928837283.0,1.896656204021769,-0.04625991081610635,31.767317230792102,0.002480814793722315,0.17570053141694808
30.0,0.0,-30.0,-30.0,30.0,30.0,-2372500928837280.5,1.8966562040217685,-0.046259910816106344,31.767317230792145,0.1979523320757341,-0.027544119620775742
30.0,0.0,-30.0,0.0,-30.0,-30.0,-2372500928837264.0,-0.13131579664299278,-0.046259910816106344,-0.5629962601262388,-0.15127383656168733,-0.020982308454197393
30.0,0.0,-30.0,0.0,-30.0,0.0,-2372500928837261.5,-0.13131579664299278,-0.046259910816106344,-0.5629962601262388,0.04200095179367552,-0.17706788043537874
30.0,0.0,-30.0,0.0,-30.0,30.0,-2372500928837262.5,-0.13131579664299278,-0.04625991081610634,-0.5629962601262402,-0.10551229797751957,-0.033643646117159795
30.0,0.0,-30.0,0.0,0.0,-30.0,-2372500928837261.5,-0.1313157966429928,-0.04625991081610637,-0.5629962601262388,-0.053127681844332544,0.19697038389276122
30.0,0.0,-30.0,0.0,0.0,0.0,-2372500928837261.5,-0.1313157966429928,-0.046259910816106344,-4.832813151841286,-2.832352362577081,5.565634226217385
30.0,0.0,-30.0,0.0,0.0,30.0,-2372500928837263.5,-0.1313157966429928,-0.04625991081610636,-0.5629962601262406,0.29964073000799424,-0.19833773291119183
30.0,0.0,-30.0,0.0,30.0,-30.0,-2372500928837263.0,-0.1313157966429928,-0.04625991081610636,-0.5629962601262388,0.13488379265437822,0.08174824305494231
30.0,0.0,-30.0,0.0,30.0,0.0,-2372500928837264.5,-0.1313157966429928,-0.04625991081610635,-0.5629962601262388,0.002480814793722308,0.1757005314169481
30.0,0.0,-30.0,0.0,30.0,30.0,-2372500928837265.5,-0.1313157966429928,-0.04625991081610635,-0.5629962601262402,0.1979523320757341,-0.027544119620775742
30.0,0.0,-30.0,30.0,-30.0,-30.0,-2372500928837282.5,-0.1313157966429928,-0.046259910816106344,-29.85835437318753,-0.15127383656168733,-0.020982308454197393
30.0,0.0,-30.0,30.0,-30.0,0.0,-2372500928837282.5,-0.1313157966429928,-0.04625991081610635,-29.858354373187538,0.042000951793675516,-0.17706788043537872
30.0,0.0,-30.0,30.0,-30.0,30.0,-2372500928837282.5,-0.1313157966429928,-0.04625991081610634,-29.85835437318753,-0.10551229797751954,-0.03364364611715977
30.0,0.0,-30.0,30.0,0.0,-30.0,-2372500928837282.5,-0.13131579664299278,-0.04625991081610634,-32.93997761660335,-2.3416256222806764,0.19697038389276128
30.0,0.0,-30.0,30.0,0.0,0.0,-2372500928837282.0,-0.1313157966429928,-0.046259910816106344,-35.75964666411942,-10.27990674952283,24.663666807225482
30.0,0.0,-30.0,30.0,0.0,30.0,-2372500928837282.0,-0.13131579664299278,-0.04625991081610634,-32.93997761660337,-1.9888572104283493,-0.19833773291119186
30.0,0.0,-30.0,30.0,30.0,-30.0,-2372500928837282.0,-0.1313157966429928,-0.04625991081610635,-25.16143234612483,0.769431518154813,0.08174824305494233
30.0,0.0,-30.0,30.0,30.0,0.0,-2372500928837282.0,-0.13131579664299278,-0.046259910816106344,-25.161432346124855,0.6370285402941571,0.17570053141694808
30.0,0.0,-30.0,30.0,30.0,30.0,-2372500928837282.5,-0.1313157966429928,-0.04625991081610635,-25.16143234612483,0.8325000575761694,-0.027544119620775742
30.0,0.0,0.0,-30.0,-30.0,-30.0,-2372500928837281.5,11.338615284244916,-6.702458062784905,35.04430858294751,-0.1512738365616873,-0.02098230845419738
30.0,0.0,0.0,-30.0,-30.0,0.0,-2372500928837281.5,11.338615284244915,-6.702458062784904,35.0443085829475,0.042000951793675516,-0.1770678804353787
30.0,0.0,0.0,-30.0,-30.0,30.0,-2372500928837282.5,11.338615284244916,-6.702458062784903,35.04430858294751,-0.10551229797751956,-0.03364364611715978
30.0,0.0,0.0,-30.0,0.0,-30.0,-2372500928837282.5,11.338615284244916,-6.7024580627849035,35.04430858294751,-0.053127681844332544,0.19697038389276125
30.0,0.0,0.0,-30.0,0.0,0.0,-2372500928837282.0,11.338615284244916,-6.702458062784902,35.044308582947494,0.1441858945890472,-0.00443220799359465
30.0,0.0,0.0,-30.0,0.0,30.0,-2372500928837282.0,11.33861528424492,-6.702458062784905,35.04430858294751,0.2996407300079943,-0.19833773291119186
30.0,0.0,0.0,-30.0,30.0,-30.0,-2372500928837282.0,11.338615284244916,-6.702458062784905,35.04430858294751,0.13488379265437825,0.08174824305494231
30.0,0.0,0.0,-30.0,30.0,0.0,-2372500928837282.5,11.338615284244916,-6.702458062784902,35.044308582947465,0.002480814793722315,0.17570053141694808
30.0,0.0,0.0,-30.0,30.0,30.0,-2372500928837282.5,11.33861528424492,-6.7024580627849035,35.04430858294751,0.1979523320757341,-0.027544119620775714
30.0,0.0,0.0,0.0,-30.0,-30.0,-2372500928837262.0,3.149315419146463,-4.058887119725023,4.164763151134697,-0.15127383656168736,-0.020982308454197338
30.0,0.0,0.0,0.0,-30.0,0.0,-2372500928837262.5,3.149315419146462,-4.058887119725023,4.1647631511346965,0.04200095179367552,-0.17706788043537872
30.0,0.0,0.0,0.0,-30.0,30.0,-2372500928837263.5,3.149315419146464,-4.058887119725023,4.1647631511346965,-0.10551229797751954,-0.03364364611715978
30.0,0.0,0.0,0.0,0.0,-30.0,-2372500928837263.5,3.149315419146462,-4.058887119725023,4.164763151134697,-0.05312768184433254,0.19697038389276125
30.0,0.0,0.0,0.0,0.0,0.0,-2372500928837263.5,3.149315419146464,-4.058887119725023,-0.10505374058034912,-2.832352362577081,5.565634226217378
30.0,0.0,0.0,0.0,0.0,30.0,-2372500928837263.0,3.149315419146463,-4.058887119725023,4.164763151134697,0.29964073000799424,-0.19833773291119183
30.0,0.0,0.0,0.0,30.0,-30.0,-2372500928837263.0,3.149315419146464,-4.058887119725023,4.164763151134697,0.13488379265437822,0.08174824305494231
30.0,0.0,0.0,0.0,30.0,0.0,-2372500928837261.5,3.149315419146462,-4.058887119725023,4.164763151134696,0.002480814793722322,0.17570053141694808
30.0,0.0,0.0,0.0,30.0,30.0,-2372500928837261.5,3.149315419146463,-4.058887119725024,4.164763151134697,0.1979523320757341,-0.02754411962077573
30.0,0.0,0.0,30.0,-30.0,-30.0,-2372500928837281.5,-0.1440516725805195,-0.07227584008050772,-29.858354373187538,-0.15127383656168736,-0.020982308454197365
30.0,0.0,0.0,30.0,-30.0,0.0,-2372500928837282.0,-0.14405167258051954,-0.07227584008050775,-29.858354373187538,0.04200095179367552,-0.1770678804353787
30.0,0.0,0.0,30.0,-30.0,30.0,-2372500928837282.0,-0.1440516725805195,-0.07227584008050772,-29.858354373187524,-0.10551229797751957,-0.03364364611715977
30.0,0.0,0.0,30.0,0.0,-30.0,-2372500928837282.0,-0.1440516725805195,-0.07227584008050772,-32.93997761660335,-2.3416256222806764,0.19697038389276122
30.0,0.0,0.0,30.0,0.0,0.0,-2372500928837282.0,-0.14405167258051954,-0.07227584008050775,-35.75964666411945,-10.27990674952283,24.66366680722549
30.0,0.0,0.0,30.0,0.0,30.0,-2372500928837282.0,-0.14405167258051954,-0.07227584008050775,-32.93997761660338,-1.9888572104283497,-0.19833773291119183
30.0,0.0,0.0,30.0,30.0,-30.0,-2372500928837282.0,-0.14405167258051954,-0.07227584008050773,-25.161432346124847,0.769431518154813,0.0817482430549423
30.0,0.0,0.0,30.0,30.0,0.0,-2372500928837282.5,-0.14405167258051954,-0.07227584008050775,-25.16143234612484,0.6370285402941571,0.17570053141694808
30.0,0.0,0.0,30.0,30.0,30.0,-2372500928837282.0,-0.1440516725805195,-0.07227584008050775,-25.161432346124858,0.832500057576169,-0.027544119620775742
30.0,0.0,30.0,-30.0,-30.0,-30.0,-2372500928837282.0,12.728000010122427,-1.670043296896184,49.664093610035145,-0.1512738365616873,-0.020982308454197393
30.0,0.0,30.0,-30.0,-30.0,0.0,-2372500928837282.0,12.72800001012243,-1.670043296896177,49.664093610035145,0.042000951793675516,-0.17706788043537872
30.0,0.0,30.0,-30.0,-30.0,30.0,-2372500928837282.5,12.72800001012243,-1.6700432968961805,49.66409361003519,-0.10551229797751956,-0.03364364611715978
30.0,0.0,30.0,-30.0,0.0,-30.0,-2372500928837282.0,12.728000010122427,-1.6700432968961814,49.66409361003516,-0.053127681844332544,0.19697038389276128
30.0,0.0,30.0,-30.0,0.0,0.0,-2372500928837281.5,12.72800001012243,-1.6700432968961787,49.66409361003516,0.1441858945890472,-0.004432207993594653
30.0,0.0,30.0,-30.0,0.0,30.0,-2372500928837281.5,12.728000010122427,-1.670043296896184,49.664093610035145,0.29964073000799424,-0.1983377329111919
30.0,0.0,30.0,-30.0,30.0,-30.0,-2372500928837281.0,12.728000010122427,-1.6700432968961831,49.66409361003516,0.13488379265437822,0.0817482430549423
30.0,0.0,30.0,-30.0,30.0,0.0,-2372500928837282.0,12.728000010122427,-1.6700432968961796,49.664093610035174,0.002480814793722315,0.17570053141694808
30.0,0.0,30.0,-30.0,30.0,30.0,-2372500928837281.5,12.72800001012243,-1.670043296896185,49.664093610035145,0.1979523320757341,-0.027544119620775742
30.0,0.0,30.0,0.0,-30.0,-30.0,-2372500928837263.0,4.435187508704987,-8.615503197567776,-0.5629962601262388,-0.15127383656168733,-0.020982308454197365
30.0,0.0,30.0,0.0,-30.0,0.0,-2372500928837262.5,4.4351875087049875,-8.61550319756777,-0.5629962601262388,0.042000951793675516,-0.1770678804353787
30.0,0.0,30.0,0.0,-30.0,30.0,-2372500928837263.0,4.435187508704988,-8.615503197567772,-0.5629962601262406,-0.10551229797751958,-0.03364364611715977
30.0,0.0,30.0,0.0,0.0,-30.0,-2372500928837263.0,4.435187508704988,-8.61550319756777,-0.5629962601262388,-0.053127681844332544,0.19697038389276122
30.0,0.0,30.0,0.0,0.0,0.0,-2372500928837263.5,4.435187508704988,-8.61550319756777,-4.832813151841285,-2.832352362577081,5.565634226217379
30.0,0.0,30.0,0.0,0.0,30.0,-2372500928837262.0,4.435187508704988,-8.615503197567772,-0.5629962601262406,0.2996407300079943,-0.19833773291119186
30.0,0.0,30.0,0.0,30.0,-30.0,-2372500928837262.0,4.435187508704988,-8.615503197567772,-0.5629962601262388,0.13488379265437822,0.08174824305494231
30.0,0.0,30.0,0.0,30.0,0.0,-2372500928837263.5,4.435187508704988,-8.61550319756777,-0.5629962601262388,0.002480814793722315,0.17570053141694808
30.0,0.0,30.0,0.0,30.0,30.0,-2372500928837263.0,4.435187508704988,-8.61550319756777,-0.5629962601262406,0.1979523320757341,-0.027544119620775742
30.0,0.0,30.0,30.0,-30.0,-30.0,-2372500928837282.0,4.435187508704988,-8.615503197567772,-29.858354373187538,-0.15127383656168733,-0.02098230845419738
30.0,0.0,30.0,30.0,-30.0,0.0,-2372500928837282.0,4.4351875087049875,-8.615503197567774,-29.858354373187524,0.04200095179367552,-0.17706788043537872
30.0,0.0,30.0,30.0,-30.0,30.0,-2372500928837280.5,4.4351875087049875,-8.615503197567772,-29.858354373187524,-0.10551229797751957,-0.03364364611715978
30.0,0.0,30.0,30.0,0.0,-30.0,-2372500928837282.0,4.4351875087049875,-8.61550319756777,-32.939977616603365,-2.3416256222806764,0.19697038389276125
30.0,0.0,30.0,30.0,0.0,0.0,-2372500928837281.0,4.435187508704988,-8.615503197567774,-35.75964666411944,-10.27990674952283,24.663666807225475
30.0,0.0,30.0,30.0,0.0,30.0,-2372500928837281.5,4.435187508704988,-8.61550319756777,-32.93997761660335,-1.9888572104283497,-0.19833773291119186
30.0,0.0,30.0,30.0,30.0,-30.0,-2372500928837281.5,4.4351875087049875,-8.615503197567772,-25.161432346124858,0.7694315181548135,0.0817482430549423
30.0,0.0,30.0,30.0,30.0,0.0,-2372500928837282.0,4.435187508704988,-8.615503197567774,-25.161432346124844,0.6370285402941571,0.1757005314169481
30.0,0.0,30.0,30.0,30.0,30.0,-2372500928837282.0,4.435187508704988,-8.615503197567772,-25.161432346124833,0.8325000575761703,-0.027544119620775742
30.0,30.0,-30.0,-30.0,-30.0,-30.0,-2372500928837282.5,-0.14018791370304745,-0.060667942454521756,28.92257574379395,-0.1512738365616873,-0.020982308454197407
30.0,30.0,-30.0,-30.0,-30.0,0.0,-2372500928837281.5,-0.14018791370304745,-0.06066794245452177,28.92257574379395,0.04200095179367551,-0.1770678804353787
30.0,30.0,-30.0,-30.0,-30.0,30.0,-2372500928837283.0,-0.14018791370304745,-0.060667942454521784,28.922575743793992,-0.10551229797751956,-0.03364364611715978
30.0,30.0,-30.0,-30.0,0.0,-30.0,-2372500928837282.5,-0.14018791370304745,-0.06066794245452177,28.92257574379395,-0.05312768184433255,0.19697038389276128
30.0,30.0,-30.0,-30.0,0.0,0.0,-2372500928837282.0,-0.14018791370304745,-0.06066794245452175,28.92257574379395,0.1441858945890472,-0.004432207993594643
30.0,30.0,-30.0,-30.0,0.0,30.0,-2372500928837282.0,-0.14018791370304745,-0.06066794245452176,28.92257574379395,0.2996407300079943,-0.19833773291119183
30.0,30.0,-30.0,-30.0,30.0,-30.0,-2372500928837282.0,-0.14018791370304745,-0.060667942454521784,28.922575743793956,0.13488379265437822,0.08174824305494231
30.0,30.0,-30.0,-30.0,30.0,0.0,-2372500928837282.5,-0.14018791370304745,-0.06066794245452176,28.92257574379392,0.002480814793722308,0.17570053141694808
30.0,30.0,-30.0,-30.0,30.0,30.0,-2372500928837282.0,-0.14018791370304745,-0.06066794245452176,28.92257574379392,0.1979523320757341,-0.02754411962077573
30.0,30.0,-30.0,0.0,-30.0,-30.0,-2372500928837263.5,-0.14018791370304742,-0.06066794245452174,-0.5629962601262388,-0.15127383656168736,-0.020982308454197338
30.0,30.0,-30.0,0.0,-30.0,0.0,-2372500928837262.5,-0.14018791370304745,-0.06066794245452176,-0.5629962601262388,0.04200095179367552,-0.17706788043537872
30.0,30.0,-30.0,0.0,-30.0,30.0,-2372500928837263.5,-0.1401879137030474,-0.06066794245452174,-0.5629962601262406,-0.10551229797751957,-0.033643646117159795
30.0,30.0,-30.0,0.0,0.0,-30.0,-2372500928837263.5,-0.14018791370304745,-0.06066794245452174,-0.5629962601262388,-0.05312768184433253,0.19697038389276122
30.0,30.0,-30.0,0.0,0.0,0.0,-2372500928837263.0,-0.14018791370304745,-0.06066794245452175,-4.832813151841284,-2.832352362577081,5.565634226217379
30.0,30.0,-30.0,0.0,0.0,30.0,-2372500928837263.0,-0.14018791370304745,-0.06066794245452176,-0.5629962601262406,0.2996407300079943,-0.19833773291119186
30.0,30.0,-30.0,0.0,30.0,-30.0,-2372500928837263.0,-0.14018791370304745,-0.06066794245452175,-0.5629962601262388,0.13488379265437825,0.08174824305494229
30.0,30.0,-30.0,0.0,30.0,0.0,-2372500928837263.0,-0.14018791370304745,-0.06066794245452178,-0.5629962601262388,0.002480814793722315,0.17570053141694808
30.0,30.0,-30.0,0.0,30.0,30.0,-2372500928837263.5,-0.14018791370304745,-0.06066794245452178,-0.5629962601262406,0.1979523320757341,-0.02754411962077573
30.0,30.0,-30.0,30.0,-30.0,-30.0,-2372500928837282.5,-0.14018791370304742,-0.060667942454521756,-29.85835437318751,-0.1512738365616873,-0.020982308454197393
30.0,30.0,-30.0,30.0,-30.0,0.0,-2372500928837282.0,-0.14018791370304745,-0.060667942454521756,-29.858354373187538,0.04200095179367552,-0.17706788043537874
30.0,30.0,-30.0,30.0,-30.0,30.0,-2372500928837280.5,-0.14018791370304745,-0.06066794245452173,-29.85835437318751,-0.10551229797751957,-0.03364364611715975
30.0,30.0,-30.0,30.0,0.0,-30.0,-2372500928837282.0,-0.14018791370304745,-0.060667942454521784,-32.93997761660334,-2.3416256222806764,0.19697038389276125
